%
O0000
(MACHINE)
(  VENDOR AUTODESK)
(  DESCRIPTION GENERIC 3-AXIS)
(T2 D=3.175 CR=0. - ZMIN=-22.225 - FLAT END MILL)
G90 G94 G17 G49 G40 G80
G21

(2D ADAPTIVE6)
T2 M06
S1999 M03
G54
M08
G00 X-200.709 Y-87.313
G43 Z15. H02
G00 Z5.
Z-7.62
G01 Z-7.938 F1275.
X-200.707 Y-87.305 Z-8.008
X-200.702 Y-87.282 Z-8.075
X-200.692 Y-87.246 Z-8.135
X-200.68 Y-87.197 Z-8.186
X-200.665 Y-87.139 Z-8.224
X-200.648 Y-87.074 Z-8.247
X-200.631 Y-87.005 Z-8.255
G03 X-200.382 Y-85.277 I-7.852 J2.011
G01 Y-85.226
X-200.317 Y-85.032
X-200.294 Y-84.987
X-200.271 Y-84.941
X-200.249 Y-84.894
X-200.226 Y-84.844
X-200.203 Y-84.793
X-200.18 Y-84.74
X-200.158 Y-84.685
X-200.135 Y-84.627
X-200.113 Y-84.567
X-200.09 Y-84.505
X-200.068 Y-84.439
X-200.045 Y-84.371
X-200.023 Y-84.3
X-200.001 Y-84.225
X-199.979 Y-84.146
X-199.957 Y-84.063
X-199.935 Y-83.975
X-199.913 Y-83.881
X-199.891 Y-83.782
X-199.869 Y-83.676
X-199.848 Y-83.562
X-199.826 Y-83.439
X-199.805 Y-83.305
X-199.784 Y-83.159
X-199.763 Y-82.997
X-199.742 Y-82.816
X-199.721 Y-82.612
X-199.703 Y-82.408
X-199.688 Y-82.204
X-199.675 Y-82.
X-199.664 Y-81.796
X-199.654 Y-81.592
X-199.646 Y-81.387
X-199.639 Y-81.183
X-199.633 Y-80.979
X-199.628 Y-80.774
X-199.624 Y-80.57
X-199.62 Y-80.365
X-199.617 Y-80.161
X-199.614 Y-79.956
X-199.612 Y-79.752
X-199.61 Y-79.547
X-199.608 Y-79.343
X-199.607 Y-79.138
X-199.606 Y-78.933
X-199.605 Y-78.729
X-199.604 Y-78.524
X-199.603 Y-78.32
X-199.602 Y-77.911
X-199.601 Y-77.502
X-199.6 Y-76.888
Y-76.275
X-199.599 Y-75.252
Y-73.616
Y-67.684
Y-35.368
Y-35.163
X-199.627 Y-34.961
X-199.65 Y-34.757
X-199.671 Y-34.554
X-199.688 Y-34.35
X-199.703 Y-34.146
X-199.716 Y-33.942
X-199.727 Y-33.738
X-199.737 Y-33.533
X-199.745 Y-33.329
X-199.752 Y-33.125
X-199.758 Y-32.92
X-199.763 Y-32.716
X-199.767 Y-32.511
X-199.771 Y-32.307
X-199.774 Y-32.102
X-199.777 Y-31.898
X-199.779 Y-31.693
X-199.782 Y-31.489
X-199.783 Y-31.284
X-199.785 Y-31.08
X-199.786 Y-30.875
X-199.787 Y-30.671
X-199.788 Y-30.466
X-199.789 Y-30.262
X-199.79 Y-30.057
X-199.791 Y-29.648
X-199.792 Y-29.239
X-199.793 Y-28.625
Y-28.012
X-199.794 Y-26.989
Y-25.353
Y-21.058
Y14.736
Y64.847
Y65.051
X-199.781 Y65.153
X-199.759 Y65.317
X-199.739 Y65.502
X-199.718 Y65.705
X-199.701 Y65.909
X-199.686 Y66.113
X-199.673 Y66.317
X-199.663 Y66.521
X-199.653 Y66.726
X-199.645 Y66.93
X-199.638 Y67.135
X-199.633 Y67.339
X-199.628 Y67.543
X-199.623 Y67.748
X-199.62 Y67.952
X-199.617 Y68.157
X-199.614 Y68.361
X-199.612 Y68.566
X-199.61 Y68.771
X-199.608 Y68.975
X-199.607 Y69.18
X-199.606 Y69.384
X-199.605 Y69.589
X-199.604 Y69.793
X-199.603 Y69.998
X-199.602 Y70.407
X-199.601 Y70.816
X-199.6 Y71.429
Y72.043
X-199.599 Y73.066
Y74.702
Y80.838
Y82.346
X-199.582 Y82.395
X-199.552 Y82.436
X-199.383 Y82.551
X-199.186 Y82.606
X-198.987 Y82.652
X-198.786 Y82.69
X-198.584 Y82.722
X-198.381 Y82.748
X-198.177 Y82.771
X-197.974 Y82.79
X-197.77 Y82.805
X-197.566 Y82.819
X-197.362 Y82.83
X-197.157 Y82.84
X-196.953 Y82.848
X-196.748 Y82.855
X-196.544 Y82.861
X-196.34 Y82.866
X-196.135 Y82.87
X-195.931 Y82.874
X-195.726 Y82.877
X-195.521 Y82.88
X-195.317 Y82.882
X-195.112 Y82.884
X-194.908 Y82.885
X-194.703 Y82.887
X-194.499 Y82.888
X-194.294 Y82.889
X-194.09 Y82.89
X-193.885
X-193.476 Y82.892
X-193.067
X-192.454 Y82.893
X-191.84 Y82.894
X-190.817
X-189.181 Y82.895
X-182.84
X-167.091
X-166.887
X-166.684 Y82.923
X-166.481 Y82.946
X-166.278 Y82.967
X-166.074 Y82.984
X-165.87 Y82.999
X-165.666 Y83.012
X-165.461 Y83.023
X-165.257 Y83.032
X-165.053 Y83.041
X-164.848 Y83.047
X-164.644 Y83.053
X-164.439 Y83.059
X-164.235 Y83.063
X-164.03 Y83.067
X-163.826 Y83.07
X-163.621 Y83.073
X-163.417 Y83.075
X-163.212 Y83.077
X-163.008 Y83.079
X-162.803 Y83.081
X-162.599 Y83.082
X-162.394 Y83.083
X-162.19 Y83.084
X-161.985 Y83.085
X-161.781 Y83.086
X-161.372 Y83.087
X-160.962 Y83.088
X-160.349 Y83.089
X-159.735
X-158.713 Y83.09
X-157.076
X-152.781
X-116.988
X-66.877
X-16.766
X33.345
X83.455
X133.566
X183.677
X183.882
X183.983 Y83.076
X184.147 Y83.055
X184.332 Y83.034
X184.536 Y83.014
X184.739 Y82.997
X184.943 Y82.982
X185.148 Y82.969
X185.352 Y82.958
X185.556 Y82.949
X185.761 Y82.941
X185.965 Y82.934
X186.169 Y82.929
X186.374 Y82.924
X186.578 Y82.919
X186.783 Y82.916
X186.987 Y82.913
X187.192 Y82.91
X187.396 Y82.908
X187.601 Y82.906
X187.805 Y82.904
X188.01 Y82.903
X188.215 Y82.902
X188.419 Y82.9
X188.624
X188.828 Y82.899
X189.237 Y82.898
X189.646 Y82.897
X190.26 Y82.896
X190.873
X191.896 Y82.895
X193.532
X199.004
X199.052 Y82.878
X199.093 Y82.848
X199.208 Y82.679
X199.272 Y82.484
X199.324 Y82.287
X199.368 Y82.087
X199.404 Y81.885
X199.434 Y81.683
X199.459 Y81.48
X199.48 Y81.277
X199.498 Y81.073
X199.514 Y80.869
X199.526 Y80.665
X199.537 Y80.461
X199.547 Y80.256
X199.554 Y80.052
X199.561 Y79.848
X199.567 Y79.643
X199.571 Y79.439
X199.575 Y79.234
X199.579 Y79.03
X199.582 Y78.825
X199.584 Y78.621
X199.587 Y78.416
X199.588 Y78.211
X199.59 Y78.007
X199.591 Y77.802
X199.592 Y77.598
X199.593 Y77.393
X199.594 Y77.189
X199.595 Y76.984
X199.596 Y76.575
X199.597 Y76.166
Y75.553
X199.598 Y74.734
Y73.507
X199.599 Y71.257
Y48.35
Y48.145
X199.627 Y47.942
X199.65 Y47.739
X199.671 Y47.536
X199.688 Y47.332
X199.703 Y47.128
X199.716 Y46.924
X199.727 Y46.72
X199.737 Y46.515
X199.745 Y46.311
X199.752 Y46.107
X199.758 Y45.902
X199.763 Y45.698
X199.767 Y45.493
X199.771 Y45.289
X199.774 Y45.084
X199.777 Y44.88
X199.779 Y44.675
X199.782 Y44.471
X199.783 Y44.266
X199.785 Y44.061
X199.786 Y43.857
X199.787 Y43.652
X199.788 Y43.448
X199.789 Y43.243
X199.79 Y43.039
X199.791 Y42.63
X199.792 Y42.221
X199.793 Y41.607
Y40.993
X199.794 Y39.971
Y38.335
Y34.039
Y-1.754
Y-51.865
Y-52.069
X199.781 Y-52.171
X199.759 Y-52.335
X199.739 Y-52.52
X199.718 Y-52.723
X199.701 Y-52.927
X199.686 Y-53.131
X199.673 Y-53.335
X199.663 Y-53.54
X199.653 Y-53.744
X199.645 Y-53.948
X199.638 Y-54.153
X199.633 Y-54.357
X199.628 Y-54.562
X199.623 Y-54.766
X199.62 Y-54.971
X199.617 Y-55.175
X199.614 Y-55.38
X199.612 Y-55.584
X199.61 Y-55.789
X199.608 Y-55.993
X199.607 Y-56.198
X199.606 Y-56.402
X199.605 Y-56.607
X199.604 Y-56.811
X199.603 Y-57.016
X199.602 Y-57.425
X199.601 Y-57.834
X199.6 Y-58.448
Y-59.061
X199.599 Y-60.084
Y-61.72
Y-67.856
Y-82.301
X199.582 Y-82.35
X199.552 Y-82.391
X199.383 Y-82.506
X199.188 Y-82.569
X198.991 Y-82.621
X198.791 Y-82.664
X198.589 Y-82.7
X198.387 Y-82.73
X198.184 Y-82.756
X197.981 Y-82.777
X197.777 Y-82.795
X197.573 Y-82.81
X197.369 Y-82.823
X197.164 Y-82.833
X196.96 Y-82.843
X196.756 Y-82.85
X196.551 Y-82.857
X196.347 Y-82.863
X196.142 Y-82.867
X195.938 Y-82.871
X195.733 Y-82.875
X195.529 Y-82.878
X195.324 Y-82.88
X195.12 Y-82.882
X194.915 Y-82.884
X194.711 Y-82.886
X194.506 Y-82.887
X194.302 Y-82.888
X194.097 Y-82.889
X193.893 Y-82.89
X193.688 Y-82.891
X193.279 Y-82.892
X192.87 Y-82.893
X192.256
X191.438 Y-82.894
X190.211
X187.961 Y-82.895
X179.984
X179.78
X179.577 Y-82.923
X179.374 Y-82.946
X179.171 Y-82.967
X178.967 Y-82.984
X178.763 Y-82.999
X178.559 Y-83.012
X178.354 Y-83.023
X178.15 Y-83.032
X177.946 Y-83.041
X177.741 Y-83.047
X177.537 Y-83.053
X177.332 Y-83.059
X177.128 Y-83.063
X176.923 Y-83.067
X176.719 Y-83.07
X176.514 Y-83.073
X176.31 Y-83.075
X176.105 Y-83.077
X175.901 Y-83.079
X175.696 Y-83.081
X175.492 Y-83.082
X175.287 Y-83.083
X175.083 Y-83.084
X174.878 Y-83.085
X174.674 Y-83.086
X174.265 Y-83.087
X173.855 Y-83.088
X173.242 Y-83.089
X172.628
X171.606 Y-83.09
X169.969
X165.674
X129.881
X79.77
X29.659
X-20.452
X-70.563
X-120.673
X-170.784
X-170.989
X-171.09 Y-83.076
X-171.255 Y-83.055
X-171.439 Y-83.034
X-171.643 Y-83.014
X-171.846 Y-82.997
X-172.05 Y-82.982
X-172.255 Y-82.969
X-172.459 Y-82.958
X-172.663 Y-82.949
X-172.868 Y-82.941
X-173.072 Y-82.934
X-173.276 Y-82.929
X-173.481 Y-82.924
X-173.685 Y-82.919
X-173.89 Y-82.916
X-174.094 Y-82.913
X-174.299 Y-82.91
X-174.503 Y-82.908
X-174.708 Y-82.906
X-174.912 Y-82.904
X-175.117 Y-82.903
X-175.322 Y-82.902
X-175.526 Y-82.9
X-175.731
X-175.935 Y-82.899
X-176.344 Y-82.898
X-176.753 Y-82.897
X-177.367 Y-82.896
X-177.98
X-179.003 Y-82.895
X-180.639
X-186.775
X-196.925
X-196.974 Y-82.878
X-197.015 Y-82.848
X-197.044 Y-82.805
X-197.099 Y-82.609
X-197.126 Y-82.406
X-197.148 Y-82.202
X-197.165 Y-81.999
X-197.178 Y-81.795
X-197.189 Y-81.59
X-197.198 Y-81.386
X-197.205 Y-81.182
X-197.21 Y-80.977
X-197.215 Y-80.773
X-197.218 Y-80.568
X-197.221 Y-80.364
X-197.223 Y-80.159
X-197.225 Y-79.955
X-197.226 Y-79.75
X-197.227 Y-79.545
X-197.228 Y-79.341
Y-79.136
X-197.229 Y-78.932
Y-78.523
Y-77.909
Y-76.682
X-197.228 Y-74.637
Y-71.978
Y-59.092
Y-58.888
X-197.256 Y-58.685
X-197.28 Y-58.482
X-197.3 Y-58.278
X-197.318 Y-58.074
X-197.333 Y-57.87
X-197.345 Y-57.666
X-197.356 Y-57.462
X-197.366 Y-57.258
X-197.374 Y-57.053
X-197.381 Y-56.849
X-197.387 Y-56.645
X-197.392 Y-56.44
X-197.396 Y-56.236
X-197.4 Y-56.031
X-197.403 Y-55.827
X-197.406 Y-55.622
X-197.409 Y-55.418
X-197.411 Y-55.213
X-197.413 Y-55.009
X-197.414 Y-54.804
X-197.415 Y-54.599
X-197.417 Y-54.395
X-197.418 Y-54.19
Y-53.986
X-197.419 Y-53.781
X-197.42 Y-53.372
X-197.421 Y-52.963
X-197.422 Y-52.35
X-197.423 Y-51.736
Y-50.713
X-197.424 Y-49.077
Y-44.782
Y-36.6
Y-36.396
X-197.426 Y-36.191
X-197.432 Y-35.987
X-197.44 Y-35.783
X-197.45 Y-35.578
X-197.46 Y-35.374
X-197.471 Y-35.17
X-197.482 Y-34.966
X-197.493 Y-34.761
X-197.504 Y-34.557
X-197.514 Y-34.353
X-197.523 Y-34.148
X-197.532 Y-33.944
X-197.541 Y-33.74
X-197.549 Y-33.535
X-197.556 Y-33.331
X-197.562 Y-33.127
X-197.568 Y-32.922
X-197.573 Y-32.718
X-197.578 Y-32.513
X-197.583 Y-32.309
X-197.587 Y-32.104
X-197.59 Y-31.9
X-197.594 Y-31.695
X-197.596 Y-31.491
X-197.599 Y-31.286
X-197.601 Y-31.082
X-197.603 Y-30.877
X-197.605 Y-30.673
X-197.607 Y-30.468
X-197.608 Y-30.264
X-197.61 Y-30.059
X-197.611 Y-29.854
X-197.612 Y-29.65
X-197.613 Y-29.445
X-197.614 Y-29.036
X-197.615 Y-28.627
X-197.616 Y-28.218
X-197.617 Y-27.605
X-197.618 Y-26.991
X-197.619 Y-26.173
Y-24.946
Y-22.9
X-197.62 Y-15.128
Y-8.992
Y41.119
Y41.323
X-197.606 Y41.425
X-197.584 Y41.589
X-197.564 Y41.774
X-197.543 Y41.977
X-197.526 Y42.181
X-197.511 Y42.385
X-197.498 Y42.589
X-197.488 Y42.794
X-197.478 Y42.998
X-197.47 Y43.202
X-197.463 Y43.407
X-197.458 Y43.611
X-197.453 Y43.816
X-197.448 Y44.02
X-197.445 Y44.225
X-197.442 Y44.429
X-197.439 Y44.634
X-197.437 Y44.838
X-197.435 Y45.043
X-197.433 Y45.247
X-197.432 Y45.452
X-197.431 Y45.656
X-197.43 Y45.861
X-197.429 Y46.065
X-197.428 Y46.27
X-197.427 Y46.679
X-197.426 Y47.088
X-197.425 Y47.702
Y48.315
X-197.424 Y49.338
Y50.974
Y57.11
Y63.655
X-197.422 Y63.86
X-197.416 Y64.064
X-197.409 Y64.269
X-197.399 Y64.473
X-197.389 Y64.677
X-197.378 Y64.881
X-197.366 Y65.086
X-197.355 Y65.29
X-197.345 Y65.494
X-197.334 Y65.698
X-197.325 Y65.903
X-197.315 Y66.107
X-197.307 Y66.311
X-197.299 Y66.516
X-197.292 Y66.72
X-197.285 Y66.925
X-197.279 Y67.129
X-197.273 Y67.333
X-197.268 Y67.538
X-197.264 Y67.742
X-197.26 Y67.947
X-197.256 Y68.151
X-197.253 Y68.356
X-197.25 Y68.56
X-197.247 Y68.765
X-197.245 Y68.97
X-197.243 Y69.174
X-197.241 Y69.379
X-197.24 Y69.583
X-197.238 Y69.788
X-197.237 Y69.992
X-197.236 Y70.197
X-197.235 Y70.401
X-197.234 Y70.606
X-197.233 Y71.015
X-197.231 Y71.424
Y71.833
X-197.23 Y72.447
X-197.229 Y73.06
Y74.083
X-197.228 Y75.515
Y78.583
Y79.823
X-197.212 Y79.871
X-197.181 Y79.912
X-197.012 Y80.027
X-196.824 Y80.107
X-196.63 Y80.172
X-196.432 Y80.226
X-196.233 Y80.271
X-196.032 Y80.309
X-195.83 Y80.341
X-195.627 Y80.368
X-195.424 Y80.391
X-195.22 Y80.41
X-195.017 Y80.427
X-194.812 Y80.441
X-194.608 Y80.453
X-194.404 Y80.463
X-194.2 Y80.472
X-193.995 Y80.48
X-193.791 Y80.486
X-193.586 Y80.491
X-193.382 Y80.496
X-193.177 Y80.5
X-192.973 Y80.504
X-192.768 Y80.506
X-192.564 Y80.509
X-192.359 Y80.511
X-192.155 Y80.513
X-191.95 Y80.515
X-191.746 Y80.516
X-191.541 Y80.517
X-191.337 Y80.518
X-191.132 Y80.519
X-190.928 Y80.52
X-190.519 Y80.521
X-190.109 Y80.522
X-189.496
X-188.882 Y80.523
X-187.86
X-186.223 Y80.524
X-186.019
X-185.814
X-185.612 Y80.552
X-185.409 Y80.576
X-185.205 Y80.596
X-185.001 Y80.613
X-184.797 Y80.628
X-184.593 Y80.641
X-184.389 Y80.652
X-184.185 Y80.662
X-183.98 Y80.67
X-183.776 Y80.677
X-183.571 Y80.683
X-183.367 Y80.688
X-183.162 Y80.692
X-182.958 Y80.696
X-182.753 Y80.699
X-182.549 Y80.702
X-182.344 Y80.705
X-182.14 Y80.707
X-181.935 Y80.709
X-181.731 Y80.71
X-181.526 Y80.711
X-181.322 Y80.713
X-181.117 Y80.714
X-180.913
X-180.708 Y80.715
X-180.299 Y80.716
X-179.89 Y80.717
X-179.276 Y80.718
X-178.663 Y80.719
X-177.64
X-176.004 Y80.72
X-171.709
X-168.232
X-168.027
X-167.823 Y80.724
X-167.618 Y80.731
X-167.414 Y80.74
X-167.209 Y80.75
X-167.005 Y80.761
X-166.597 Y80.783
X-166.393 Y80.794
X-166.188 Y80.804
X-165.984 Y80.814
X-165.78 Y80.824
X-165.575 Y80.832
X-165.371 Y80.84
X-165.166 Y80.848
X-164.962 Y80.855
X-164.758 Y80.861
X-164.553 Y80.866
X-164.349 Y80.872
X-164.144 Y80.876
X-163.94 Y80.88
X-163.735 Y80.884
X-163.531 Y80.888
X-163.326 Y80.891
X-163.122 Y80.894
X-162.917 Y80.896
X-162.713 Y80.898
X-162.508 Y80.9
X-162.304 Y80.902
X-162.099 Y80.903
X-161.895 Y80.905
X-161.69 Y80.906
X-161.485 Y80.907
X-161.281 Y80.908
X-160.872 Y80.91
X-160.463 Y80.911
X-160.054 Y80.912
X-159.44 Y80.913
X-158.827 Y80.914
X-158.008
X-156.781 Y80.915
X-154.736
X-147.782
X-135.919
X-85.808
X-35.697
X14.414
X64.524
X114.635
X164.746
X164.951
X165.052 Y80.901
X165.216 Y80.88
X165.401 Y80.859
X165.605 Y80.839
X165.808 Y80.822
X166.012 Y80.807
X166.217 Y80.794
X166.421 Y80.783
X166.625 Y80.774
X166.829 Y80.766
X167.034 Y80.759
X167.238 Y80.754
X167.443 Y80.749
X167.647 Y80.744
X167.852 Y80.741
X168.056 Y80.738
X168.261 Y80.735
X168.465 Y80.733
X168.67 Y80.731
X168.874 Y80.729
X169.079 Y80.728
X169.283 Y80.727
X169.488 Y80.725
X169.693
X169.897 Y80.724
X170.306 Y80.723
X170.715 Y80.722
X171.329 Y80.721
X171.942
X172.965 Y80.72
X174.601
X180.737
X182.578
X182.783 Y80.716
X182.987 Y80.709
X183.191 Y80.7
X183.396 Y80.69
X183.6 Y80.68
X184.008 Y80.657
X184.213 Y80.646
X184.417 Y80.636
X184.621 Y80.626
X184.826 Y80.616
X185.03 Y80.607
X185.234 Y80.599
X185.439 Y80.592
X185.643 Y80.585
X185.847 Y80.578
X186.052 Y80.572
X186.256 Y80.567
X186.461 Y80.562
X186.665 Y80.558
X186.87 Y80.554
X187.074 Y80.551
X187.279 Y80.547
X187.483 Y80.545
X187.688 Y80.542
X187.892 Y80.54
X188.097 Y80.538
X188.301 Y80.536
X188.506 Y80.535
X188.711 Y80.534
X188.915 Y80.532
X189.12 Y80.531
X189.324 Y80.53
X189.733 Y80.529
X190.142 Y80.528
X190.551 Y80.527
X191.165 Y80.526
X191.779 Y80.525
X192.597
X193.824 Y80.524
X196.074
X196.508
X196.557 Y80.508
X196.598 Y80.477
X196.713 Y80.308
X196.795 Y80.121
X196.863 Y79.928
X196.919 Y79.731
X196.966 Y79.532
X197.005 Y79.331
X197.038 Y79.129
X197.066 Y78.927
X197.09 Y78.724
X197.11 Y78.52
X197.127 Y78.316
X197.142 Y78.112
X197.154 Y77.908
X197.165 Y77.704
X197.174 Y77.499
X197.182 Y77.295
X197.188 Y77.091
X197.194 Y76.886
X197.199 Y76.682
X197.203 Y76.477
X197.207 Y76.273
X197.21 Y76.068
X197.212 Y75.864
X197.215 Y75.659
X197.217 Y75.455
X197.218 Y75.25
X197.22 Y75.046
X197.221 Y74.841
X197.222 Y74.637
X197.223 Y74.432
Y74.227
X197.225 Y73.818
X197.226 Y73.409
Y72.796
X197.227 Y72.182
X197.228 Y71.159
Y69.523
Y64.614
Y62.365
Y62.16
X197.256 Y61.957
X197.28 Y61.754
X197.3 Y61.551
X197.318 Y61.347
X197.333 Y61.143
X197.345 Y60.939
X197.356 Y60.735
X197.366 Y60.53
X197.374 Y60.326
X197.381 Y60.121
X197.387 Y59.917
X197.392 Y59.713
X197.396 Y59.508
X197.4 Y59.304
X197.403 Y59.099
X197.406 Y58.895
X197.409 Y58.69
X197.411 Y58.486
X197.413 Y58.281
X197.414 Y58.076
X197.415 Y57.872
X197.417 Y57.667
X197.418 Y57.463
Y57.258
X197.419 Y57.054
X197.42 Y56.645
X197.421 Y56.236
X197.422 Y55.622
X197.423 Y55.008
Y53.986
X197.424 Y52.35
Y49.486
Y49.282
X197.429 Y49.077
X197.436 Y48.873
X197.444 Y48.668
X197.455 Y48.464
X197.465 Y48.26
X197.487 Y47.851
X197.498 Y47.647
X197.509 Y47.443
X197.519 Y47.238
X197.528 Y47.034
X197.536 Y46.83
X197.544 Y46.625
X197.552 Y46.421
X197.559 Y46.217
X197.565 Y46.012
X197.571 Y45.808
X197.576 Y45.603
X197.58 Y45.399
X197.585 Y45.194
X197.588 Y44.99
X197.592 Y44.785
X197.595 Y44.581
X197.598 Y44.376
X197.6 Y44.172
X197.602 Y43.967
X197.604 Y43.763
X197.606 Y43.558
X197.608 Y43.354
X197.609 Y43.149
X197.61 Y42.945
X197.611 Y42.74
X197.612 Y42.535
X197.614 Y42.126
X197.615 Y41.717
X197.616 Y41.308
X197.617 Y40.695
X197.618 Y40.081
X197.619 Y39.263
Y38.036
Y35.99
Y29.036
X197.62 Y12.264
Y-37.846
Y-38.051
X197.606 Y-38.152
X197.584 Y-38.317
X197.564 Y-38.501
X197.543 Y-38.705
X197.526 Y-38.909
X197.511 Y-39.113
X197.498 Y-39.317
X197.488 Y-39.521
X197.478 Y-39.725
X197.47 Y-39.93
X197.463 Y-40.134
X197.458 Y-40.339
X197.453 Y-40.543
X197.448 Y-40.748
X197.445 Y-40.952
X197.442 Y-41.157
X197.439 Y-41.361
X197.437 Y-41.566
X197.435 Y-41.77
X197.433 Y-41.975
X197.432 Y-42.179
X197.431 Y-42.384
X197.43 Y-42.588
X197.429 Y-42.793
X197.428 Y-42.997
X197.427 Y-43.406
X197.426 Y-43.816
X197.425 Y-44.429
Y-45.043
X197.424 Y-46.065
Y-47.702
Y-50.77
X197.42 Y-50.974
X197.413 Y-51.179
X197.404 Y-51.383
X197.394 Y-51.587
X197.383 Y-51.791
X197.361 Y-52.2
X197.35 Y-52.404
X197.34 Y-52.608
X197.33 Y-52.813
X197.32 Y-53.017
X197.311 Y-53.221
X197.303 Y-53.426
X197.296 Y-53.63
X197.289 Y-53.835
X197.282 Y-54.039
X197.276 Y-54.243
X197.271 Y-54.448
X197.266 Y-54.652
X197.262 Y-54.857
X197.258 Y-55.061
X197.255 Y-55.266
X197.252 Y-55.47
X197.249 Y-55.675
X197.246 Y-55.879
X197.244 Y-56.084
X197.242 Y-56.288
X197.24 Y-56.493
X197.239 Y-56.697
X197.238 Y-56.902
X197.236 Y-57.107
X197.235 Y-57.311
X197.234 Y-57.516
X197.233 Y-57.925
X197.232 Y-58.334
X197.231 Y-58.743
X197.23 Y-59.356
X197.229 Y-59.97
Y-60.788
X197.228 Y-62.015
Y-64.265
Y-79.81
X197.212 Y-79.858
X197.181 Y-79.899
X197.012 Y-80.015
X196.824 Y-80.096
X196.631 Y-80.162
X196.434 Y-80.218
X196.235 Y-80.264
X196.034 Y-80.303
X195.832 Y-80.336
X195.63 Y-80.364
X195.426 Y-80.387
X195.223 Y-80.407
X195.019 Y-80.424
X194.815 Y-80.439
X194.611 Y-80.451
X194.407 Y-80.461
X194.202 Y-80.47
X193.998 Y-80.478
X193.793 Y-80.485
X193.589 Y-80.49
X193.385 Y-80.495
X193.18 Y-80.499
X192.976 Y-80.503
X192.771 Y-80.506
X192.566 Y-80.508
X192.362 Y-80.511
X192.157 Y-80.513
X191.953 Y-80.514
X191.748 Y-80.516
X191.544 Y-80.517
X191.339 Y-80.518
X191.135 Y-80.519
X190.93
X190.521 Y-80.521
X190.112
X189.499 Y-80.522
X189.294 Y-80.523
X189.089
X188.887 Y-80.551
X188.684 Y-80.575
X188.48 Y-80.595
X188.276 Y-80.613
X188.072 Y-80.628
X187.868 Y-80.641
X187.664 Y-80.652
X187.46 Y-80.661
X187.255 Y-80.669
X187.051 Y-80.676
X186.847 Y-80.682
X186.642 Y-80.688
X186.438 Y-80.692
X186.233 Y-80.696
X186.029 Y-80.699
X185.824 Y-80.702
X185.62 Y-80.705
X185.415 Y-80.707
X185.211 Y-80.708
X185.006 Y-80.71
X184.801 Y-80.711
X184.597 Y-80.712
X184.392 Y-80.713
X184.188 Y-80.714
X183.983 Y-80.715
X183.574 Y-80.716
X183.165 Y-80.717
X182.552 Y-80.718
X181.938 Y-80.719
X181.12
X180.915 Y-80.72
X180.711 Y-80.724
X180.506 Y-80.731
X180.302 Y-80.74
X180.098 Y-80.75
X179.894 Y-80.761
X179.485 Y-80.783
X179.281 Y-80.794
X179.077 Y-80.804
X178.872 Y-80.814
X178.668 Y-80.824
X178.464 Y-80.832
X178.259 Y-80.84
X178.055 Y-80.848
X177.85 Y-80.855
X177.646 Y-80.861
X177.442 Y-80.867
X177.237 Y-80.872
X177.033 Y-80.876
X176.828 Y-80.881
X176.624 Y-80.884
X176.419 Y-80.888
X176.215 Y-80.891
X176.01 Y-80.894
X175.806 Y-80.896
X175.601 Y-80.898
X175.396 Y-80.9
X175.192 Y-80.902
X174.987 Y-80.903
X174.783 Y-80.905
X174.578 Y-80.906
X174.374 Y-80.907
X174.169 Y-80.908
X173.76 Y-80.91
X173.351 Y-80.911
X172.942 Y-80.912
X172.329 Y-80.913
X171.715 Y-80.914
X170.897
X169.67 Y-80.915
X167.624
X160.67
X139.194
X89.083
X38.972
X-11.138
X-61.249
X-111.36
X-161.471
X-161.675
X-161.777 Y-80.901
X-161.941 Y-80.88
X-162.126 Y-80.859
X-162.329 Y-80.839
X-162.533 Y-80.822
X-162.737 Y-80.807
X-162.941 Y-80.794
X-163.145 Y-80.783
X-163.35 Y-80.774
X-163.554 Y-80.766
X-163.759 Y-80.759
X-163.963 Y-80.754
X-164.168 Y-80.749
X-164.372 Y-80.744
X-164.577 Y-80.741
X-164.781 Y-80.738
X-164.986 Y-80.735
X-165.19 Y-80.733
X-165.395 Y-80.731
X-165.599 Y-80.729
X-165.804 Y-80.728
X-166.008 Y-80.727
X-166.213 Y-80.725
X-166.417
X-166.622 Y-80.724
X-167.031 Y-80.723
X-167.44 Y-80.722
X-168.054 Y-80.721
X-168.667
X-169.69 Y-80.72
X-169.894 Y-80.716
X-170.099 Y-80.709
X-170.303 Y-80.7
X-170.507 Y-80.69
X-170.712 Y-80.68
X-171.12 Y-80.657
X-171.324 Y-80.646
X-171.529 Y-80.636
X-171.733 Y-80.626
X-171.937 Y-80.616
X-172.141 Y-80.607
X-172.346 Y-80.599
X-172.55 Y-80.591
X-172.755 Y-80.584
X-172.959 Y-80.578
X-173.164 Y-80.572
X-173.368 Y-80.567
X-173.572 Y-80.562
X-173.777 Y-80.558
X-173.981 Y-80.554
X-174.186 Y-80.551
X-174.39 Y-80.547
X-174.595 Y-80.545
X-174.8 Y-80.542
X-175.004 Y-80.54
X-175.209 Y-80.538
X-175.413 Y-80.536
X-175.618 Y-80.535
X-175.822 Y-80.533
X-176.027 Y-80.532
X-176.231 Y-80.531
X-176.436 Y-80.53
X-176.845 Y-80.529
X-177.254 Y-80.528
X-177.663 Y-80.527
X-178.277 Y-80.526
X-178.89 Y-80.525
X-179.708
X-180.935 Y-80.524
X-183.185
X-194.256
X-194.304 Y-80.508
X-194.345 Y-80.477
X-194.461 Y-80.308
X-194.525 Y-80.114
X-194.579 Y-79.917
X-194.623 Y-79.717
X-194.659 Y-79.516
X-194.69 Y-79.313
X-194.716 Y-79.111
X-194.738 Y-78.907
X-194.756 Y-78.703
X-194.772 Y-78.499
X-194.785 Y-78.295
X-194.796 Y-78.091
X-194.805 Y-77.887
X-194.813 Y-77.682
X-194.82 Y-77.478
X-194.825 Y-77.274
X-194.83 Y-77.069
X-194.834 Y-76.865
X-194.838 Y-76.66
X-194.841 Y-76.456
X-194.843 Y-76.251
X-194.845 Y-76.047
X-194.847 Y-75.842
X-194.849 Y-75.637
X-194.85 Y-75.433
X-194.851 Y-75.228
X-194.852 Y-75.024
X-194.853 Y-74.819
X-194.854 Y-74.615
X-194.855 Y-74.206
Y-73.797
X-194.856 Y-73.183
X-194.857 Y-72.365
Y-71.138
Y-68.479
Y-63.365
Y-63.161
X-194.885 Y-62.958
X-194.909 Y-62.755
X-194.929 Y-62.552
X-194.947 Y-62.348
X-194.962 Y-62.144
X-194.975 Y-61.94
X-194.986 Y-61.736
X-194.995 Y-61.531
X-195.003 Y-61.327
X-195.01 Y-61.122
X-195.016 Y-60.918
X-195.021 Y-60.713
X-195.026 Y-60.509
X-195.029 Y-60.305
X-195.033 Y-60.1
X-195.038 Y-59.896
X-195.047 Y-59.691
X-195.057 Y-59.487
X-195.068 Y-59.283
X-195.081 Y-59.079
X-195.093 Y-58.874
X-195.105 Y-58.67
X-195.117 Y-58.466
X-195.129 Y-58.262
X-195.139 Y-58.058
X-195.15 Y-57.853
X-195.159 Y-57.649
X-195.168 Y-57.445
X-195.176 Y-57.24
X-195.183 Y-57.036
X-195.19 Y-56.831
X-195.196 Y-56.627
X-195.202 Y-56.423
X-195.207 Y-56.218
X-195.211 Y-56.014
X-195.215 Y-55.809
X-195.219 Y-55.605
X-195.222 Y-55.4
X-195.225 Y-55.196
X-195.228 Y-54.991
X-195.23 Y-54.787
X-195.232 Y-54.582
X-195.234 Y-54.377
X-195.236 Y-54.173
X-195.237 Y-53.968
X-195.239 Y-53.764
X-195.24 Y-53.559
X-195.241 Y-53.355
X-195.242 Y-53.15
X-195.243 Y-52.741
X-195.245 Y-52.332
X-195.246 Y-51.923
X-195.247 Y-51.309
Y-50.696
X-195.248 Y-49.878
Y-48.651
X-195.249 Y-46.605
Y-38.628
Y-37.81
Y-37.606
Y-37.401
X-195.251 Y-37.197
X-195.253 Y-36.992
X-195.256 Y-36.788
X-195.26 Y-36.583
X-195.265 Y-36.379
X-195.271 Y-36.174
X-195.278 Y-35.97
X-195.285 Y-35.765
X-195.292 Y-35.561
X-195.3 Y-35.357
X-195.324 Y-34.743
X-195.332 Y-34.539
X-195.34 Y-34.335
X-195.347 Y-34.13
X-195.355 Y-33.926
X-195.361 Y-33.721
X-195.368 Y-33.517
X-195.374 Y-33.313
X-195.38 Y-33.108
X-195.385 Y-32.904
X-195.391 Y-32.699
X-195.395 Y-32.495
X-195.4 Y-32.29
X-195.404 Y-32.086
X-195.407 Y-31.881
X-195.411 Y-31.677
X-195.414 Y-31.472
X-195.417 Y-31.268
X-195.42 Y-31.063
X-195.422 Y-30.859
X-195.424 Y-30.654
X-195.426 Y-30.45
X-195.428 Y-30.245
X-195.43 Y-30.041
X-195.431 Y-29.836
X-195.433 Y-29.632
X-195.434 Y-29.427
X-195.435 Y-29.222
X-195.437 Y-28.813
X-195.438 Y-28.404
X-195.44 Y-27.995
X-195.441 Y-27.586
X-195.442 Y-26.973
X-195.443 Y-26.359
Y-25.541
X-195.444 Y-24.518
Y-22.882
Y-19.609
X-195.445 Y-13.269
Y36.842
Y37.046
X-195.431 Y37.148
X-195.409 Y37.312
X-195.389 Y37.497
X-195.368 Y37.701
X-195.351 Y37.904
X-195.336 Y38.108
X-195.323 Y38.312
X-195.313 Y38.517
X-195.303 Y38.721
X-195.295 Y38.925
X-195.288 Y39.13
X-195.283 Y39.334
X-195.278 Y39.539
X-195.273 Y39.743
X-195.27 Y39.948
X-195.264 Y40.152
X-195.256 Y40.357
X-195.245 Y40.561
X-195.234 Y40.765
X-195.222 Y40.969
X-195.197 Y41.378
X-195.185 Y41.582
X-195.174 Y41.786
X-195.163 Y41.99
X-195.152 Y42.194
X-195.143 Y42.399
X-195.134 Y42.603
X-195.125 Y42.807
X-195.118 Y43.012
X-195.111 Y43.216
X-195.105 Y43.421
X-195.099 Y43.625
X-195.094 Y43.83
X-195.089 Y44.034
X-195.085 Y44.239
X-195.081 Y44.443
X-195.078 Y44.648
X-195.075 Y44.852
X-195.073 Y45.057
X-195.07 Y45.261
X-195.068 Y45.466
X-195.066 Y45.67
X-195.065 Y45.875
X-195.063 Y46.079
X-195.062 Y46.284
X-195.061 Y46.488
X-195.06 Y46.693
X-195.059 Y46.897
X-195.058 Y47.306
X-195.056 Y47.716
Y48.125
X-195.055 Y48.738
X-195.054 Y49.352
Y50.374
X-195.053 Y51.806
Y54.874
Y62.442
Y62.646
X-195.052 Y62.851
X-195.05 Y63.056
X-195.046 Y63.26
X-195.042 Y63.465
X-195.037 Y63.669
X-195.03 Y63.873
X-195.023 Y64.078
X-195.016 Y64.282
X-195.008 Y64.487
X-195. Y64.691
X-194.975 Y65.304
X-194.967 Y65.508
X-194.959 Y65.713
X-194.952 Y65.917
X-194.945 Y66.122
X-194.938 Y66.326
X-194.931 Y66.531
X-194.925 Y66.735
X-194.919 Y66.939
X-194.914 Y67.144
X-194.909 Y67.348
X-194.904 Y67.553
X-194.9 Y67.757
X-194.896 Y67.962
X-194.892 Y68.166
X-194.889 Y68.371
X-194.885 Y68.575
X-194.883 Y68.78
X-194.88 Y68.984
X-194.878 Y69.189
X-194.876 Y69.393
X-194.874 Y69.598
X-194.872 Y69.802
X-194.87 Y70.007
X-194.869 Y70.212
X-194.868 Y70.416
X-194.867 Y70.621
X-194.866 Y70.825
X-194.864 Y71.234
X-194.862 Y71.643
X-194.861 Y72.052
X-194.86 Y72.666
X-194.859 Y73.279
X-194.858 Y74.098
Y75.12
X-194.857 Y76.757
Y77.409
X-194.841 Y77.457
X-194.81 Y77.498
X-194.642 Y77.613
X-194.456 Y77.698
X-194.263 Y77.768
X-194.067 Y77.827
X-193.869 Y77.875
X-193.668 Y77.917
X-193.467 Y77.951
X-193.264 Y77.981
X-193.061 Y78.006
X-192.858 Y78.027
X-192.654 Y78.045
X-192.45 Y78.06
X-192.246 Y78.074
X-192.042 Y78.085
X-191.838 Y78.095
X-191.633 Y78.103
X-191.429 Y78.11
X-191.224 Y78.116
X-191.02 Y78.121
X-190.815 Y78.126
X-190.611 Y78.13
X-190.406 Y78.133
X-190.202 Y78.136
X-189.997 Y78.138
X-189.793 Y78.14
X-189.588 Y78.142
X-189.384 Y78.144
X-189.179 Y78.145
X-188.975 Y78.146
X-188.77 Y78.147
X-188.566 Y78.148
X-188.361 Y78.149
X-187.952 Y78.15
X-187.543 Y78.151
X-187.134
X-186.929 Y78.152
X-186.827 Y78.153
X-186.623 Y78.158
X-186.418 Y78.166
X-186.214 Y78.176
X-186.01 Y78.186
X-185.806 Y78.198
X-185.601 Y78.209
X-185.397 Y78.221
X-185.193 Y78.232
X-184.992 Y78.27
X-184.79 Y78.304
X-184.588 Y78.334
X-184.385 Y78.36
X-184.182 Y78.382
X-183.978 Y78.402
X-183.774 Y78.42
X-183.57 Y78.435
X-183.366 Y78.449
X-183.162 Y78.461
X-182.958 Y78.471
X-182.754 Y78.48
X-182.549 Y78.488
X-182.345 Y78.495
X-182.14 Y78.501
X-181.936 Y78.507
X-181.731 Y78.512
X-181.527 Y78.516
X-181.322 Y78.519
X-181.118 Y78.523
X-180.913 Y78.525
X-180.709 Y78.528
X-180.504 Y78.53
X-180.3 Y78.532
X-180.095 Y78.533
X-179.891 Y78.535
X-179.686 Y78.536
X-179.482 Y78.537
X-179.277 Y78.538
X-179.073 Y78.539
X-178.664 Y78.54
X-178.254 Y78.541
X-177.845 Y78.542
X-177.232 Y78.543
X-176.414 Y78.544
X-175.391
X-173.755
X-169.46 Y78.545
X-169.255
X-169.05 Y78.546
X-168.846 Y78.547
X-168.641 Y78.55
X-168.437 Y78.553
X-168.232 Y78.558
X-168.028 Y78.563
X-167.824 Y78.569
X-167.619 Y78.576
X-167.415 Y78.583
X-167.21 Y78.591
X-167.006 Y78.599
X-166.393 Y78.623
X-166.188 Y78.631
X-165.984 Y78.639
X-165.78 Y78.646
X-165.575 Y78.653
X-165.371 Y78.66
X-165.166 Y78.666
X-164.962 Y78.672
X-164.757 Y78.678
X-164.553 Y78.683
X-164.349 Y78.688
X-164.144 Y78.693
X-163.94 Y78.697
X-163.735 Y78.701
X-163.531 Y78.705
X-163.326 Y78.708
X-163.122 Y78.711
X-162.917 Y78.714
X-162.712 Y78.716
X-162.508 Y78.719
X-162.303 Y78.721
X-162.099 Y78.723
X-161.894 Y78.725
X-161.69 Y78.726
X-161.485 Y78.728
X-161.281 Y78.729
X-161.076 Y78.73
X-160.872 Y78.731
X-160.463 Y78.733
X-160.054 Y78.735
X-159.645 Y78.736
X-159.235 Y78.737
X-158.622 Y78.738
X-158.008 Y78.739
X-157.19
X-156.167 Y78.74
X-154.531
X-151.259
X-135.305
X-85.194
X-35.083
X15.027
X65.138
X115.249
X163.519
X163.723 Y78.738
X163.928 Y78.732
X164.132 Y78.724
X164.337 Y78.715
X164.541 Y78.704
X164.745 Y78.694
X165.154 Y78.672
X165.358 Y78.662
X165.562 Y78.652
X165.698 Y78.627
X165.844 Y78.602
X166.002 Y78.577
X166.176 Y78.553
X166.369 Y78.528
X166.572 Y78.506
X166.775 Y78.486
X166.979 Y78.468
X167.183 Y78.453
X167.387 Y78.439
X167.591 Y78.428
X167.796 Y78.417
X168. Y78.408
X168.204 Y78.401
X168.409 Y78.394
X168.613 Y78.388
X168.818 Y78.383
X169.022 Y78.378
X169.227 Y78.374
X169.431 Y78.371
X169.636 Y78.368
X169.84 Y78.365
X170.045 Y78.363
X170.249 Y78.361
X170.454 Y78.36
X170.658 Y78.358
X170.863 Y78.357
X171.067 Y78.356
X171.272 Y78.355
X171.476 Y78.354
X171.886 Y78.353
X172.295 Y78.352
X172.704 Y78.351
X173.317 Y78.35
X174.135
X175.363 Y78.349
X177.613
X181.294
X181.499
X181.703 Y78.347
X181.908 Y78.345
X182.112 Y78.342
X182.317 Y78.337
X182.521 Y78.332
X182.726 Y78.326
X182.93 Y78.319
X183.134 Y78.311
X183.339 Y78.303
X183.543 Y78.295
X183.952 Y78.278
X184.156 Y78.27
X184.361 Y78.262
X184.565 Y78.254
X184.769 Y78.247
X184.974 Y78.24
X185.178 Y78.233
X185.383 Y78.226
X185.587 Y78.22
X185.792 Y78.214
X185.996 Y78.209
X186.2 Y78.204
X186.405 Y78.199
X186.609 Y78.195
X186.814 Y78.191
X187.018 Y78.187
X187.223 Y78.184
X187.427 Y78.181
X187.632 Y78.178
X187.837 Y78.176
X188.041 Y78.173
X188.246 Y78.171
X188.45 Y78.169
X188.655 Y78.168
X188.859 Y78.166
X189.064 Y78.165
X189.268 Y78.163
X189.473 Y78.162
X189.677 Y78.161
X190.086 Y78.16
X190.495 Y78.158
X190.904 Y78.157
X191.518 Y78.156
X192.132 Y78.155
X192.95 Y78.154
X194.062
X194.113
X194.162 Y78.137
X194.202 Y78.107
X194.318 Y77.938
X194.403 Y77.752
X194.472 Y77.559
X194.531 Y77.363
X194.579 Y77.165
X194.62 Y76.964
X194.655 Y76.763
X194.684 Y76.56
X194.709 Y76.357
X194.731 Y76.154
X194.749 Y75.95
X194.764 Y75.746
X194.777 Y75.542
X194.789 Y75.338
X194.798 Y75.134
X194.807 Y74.929
X194.814 Y74.725
X194.82 Y74.52
X194.825 Y74.316
X194.83 Y74.111
X194.834 Y73.907
X194.837 Y73.702
X194.84 Y73.498
X194.842 Y73.293
X194.844 Y73.089
X194.846 Y72.884
X194.848 Y72.68
X194.849 Y72.475
X194.85 Y72.271
X194.851 Y72.066
X194.852 Y71.862
X194.853 Y71.657
X194.854 Y71.248
X194.855 Y70.839
X194.856 Y70.225
Y69.612
X194.857 Y68.589
Y66.953
Y63.476
Y63.271
X194.859 Y63.169
X194.864 Y62.964
X194.871 Y62.76
X194.881 Y62.556
X194.892 Y62.352
X194.903 Y62.147
X194.914 Y61.943
X194.926 Y61.739
X194.937 Y61.535
X194.947 Y61.33
X194.957 Y61.126
X194.966 Y60.922
X194.975 Y60.717
X194.983 Y60.513
X194.99 Y60.309
X194.997 Y60.104
X195.003 Y59.9
X195.008 Y59.695
X195.013 Y59.491
X195.018 Y59.286
X195.022 Y59.082
X195.025 Y58.877
X195.028 Y58.673
X195.031 Y58.468
X195.034 Y58.264
X195.036 Y58.059
X195.038 Y57.855
X195.04 Y57.65
X195.041 Y57.446
X195.043 Y57.241
X195.044 Y57.037
X195.045 Y56.832
X195.074 Y56.63
X195.099 Y56.427
X195.12 Y56.223
X195.138 Y56.019
X195.153 Y55.815
X195.167 Y55.611
X195.178 Y55.407
X195.188 Y55.203
X195.196 Y54.998
X195.204 Y54.794
X195.21 Y54.59
X195.215 Y54.385
X195.22 Y54.181
X195.224 Y53.976
X195.227 Y53.772
X195.23 Y53.567
X195.233 Y53.363
X195.235 Y53.158
X195.237 Y52.954
X195.239 Y52.749
X195.24 Y52.545
X195.241 Y52.34
X195.242 Y52.135
X195.243 Y51.931
X195.244 Y51.726
X195.245 Y51.317
X195.246 Y50.908
Y50.704
X195.247 Y50.499
X195.248 Y50.295
X195.25 Y50.09
X195.253 Y49.886
X195.256 Y49.681
X195.261 Y49.477
X195.267 Y49.272
X195.273 Y49.068
X195.28 Y48.863
X195.287 Y48.659
X195.295 Y48.455
X195.303 Y48.25
X195.319 Y47.841
X195.327 Y47.637
X195.335 Y47.433
X195.343 Y47.228
X195.35 Y47.024
X195.357 Y46.819
X195.364 Y46.615
X195.371 Y46.411
X195.377 Y46.206
X195.382 Y46.002
X195.388 Y45.797
X195.393 Y45.593
X195.397 Y45.388
X195.401 Y45.184
X195.405 Y44.979
X195.409 Y44.775
X195.412 Y44.57
X195.415 Y44.366
X195.418 Y44.161
X195.421 Y43.957
X195.423 Y43.752
X195.425 Y43.548
X195.427 Y43.343
X195.429 Y43.139
X195.43 Y42.934
X195.432 Y42.73
X195.433 Y42.525
X195.434 Y42.321
X195.435 Y42.116
X195.437 Y41.707
X195.439 Y41.298
X195.44 Y40.889
X195.441 Y40.48
X195.442 Y39.866
X195.443 Y39.253
Y38.434
X195.444 Y37.412
Y35.776
Y32.503
X195.445 Y6.936
Y-36.629
X195.441 Y-36.834
X195.436 Y-37.038
X195.428 Y-37.243
X195.418 Y-37.447
X195.408 Y-37.651
X195.397 Y-37.856
X195.387 Y-38.06
X195.376 Y-38.264
X195.366 Y-38.468
X195.356 Y-38.673
X195.346 Y-38.877
X195.337 Y-39.081
X195.329 Y-39.286
X195.321 Y-39.49
X195.314 Y-39.695
X195.307 Y-39.899
X195.301 Y-40.103
X195.296 Y-40.308
X195.291 Y-40.512
X195.286 Y-40.717
X195.282 Y-40.921
X195.278 Y-41.126
X195.275 Y-41.33
X195.272 Y-41.535
X195.27 Y-41.739
X195.267 Y-41.944
X195.265 Y-42.148
X195.263 Y-42.353
X195.261 Y-42.557
X195.26 Y-42.762
X195.259 Y-42.967
X195.257 Y-43.171
X195.256 Y-43.376
X195.242 Y-43.477
X195.221 Y-43.637
X195.2 Y-43.816
X195.179 Y-44.019
X195.161 Y-44.223
X195.145 Y-44.427
X195.132 Y-44.631
X195.12 Y-44.835
X195.111 Y-45.039
X195.102 Y-45.244
X195.095 Y-45.448
X195.089 Y-45.653
X195.084 Y-45.857
X195.079 Y-46.062
X195.075 Y-46.266
X195.072 Y-46.471
X195.069 Y-46.675
X195.067 Y-46.88
X195.065 Y-47.084
X195.063 Y-47.289
X195.062 Y-47.493
X195.06 Y-47.698
X195.059 Y-47.902
X195.058 Y-48.107
Y-48.311
X195.056 Y-48.72
X195.055 Y-49.13
Y-49.539
X195.054 Y-49.743
X195.052 Y-49.948
X195.05 Y-50.152
X195.046 Y-50.357
X195.041 Y-50.561
X195.035 Y-50.766
X195.028 Y-50.97
X195.021 Y-51.174
X195.013 Y-51.379
X195.005 Y-51.583
X194.98 Y-52.196
X194.972 Y-52.401
X194.964 Y-52.605
X194.957 Y-52.809
X194.949 Y-53.014
X194.942 Y-53.218
X194.935 Y-53.423
X194.929 Y-53.627
X194.923 Y-53.832
X194.917 Y-54.036
X194.912 Y-54.24
X194.907 Y-54.445
X194.902 Y-54.649
X194.898 Y-54.854
X194.894 Y-55.058
X194.891 Y-55.263
X194.887 Y-55.467
X194.884 Y-55.672
X194.882 Y-55.876
X194.879 Y-56.081
X194.877 Y-56.285
X194.875 Y-56.49
X194.873 Y-56.694
X194.871 Y-56.899
X194.87 Y-57.104
X194.868 Y-57.308
X194.867 Y-57.513
X194.866 Y-57.717
X194.865 Y-57.922
X194.863 Y-58.331
X194.862 Y-58.74
X194.861 Y-59.149
X194.86 Y-59.762
X194.859 Y-60.376
X194.858 Y-61.194
Y-62.217
X194.857 Y-63.853
Y-67.33
Y-77.416
X194.841 Y-77.465
X194.81 Y-77.506
X194.641 Y-77.621
X194.455 Y-77.704
X194.262 Y-77.773
X194.066 Y-77.831
X193.867 Y-77.879
X193.666 Y-77.919
X193.465 Y-77.953
X193.262 Y-77.982
X193.059 Y-78.007
X192.856 Y-78.028
X192.652 Y-78.046
X192.448 Y-78.061
X192.244 Y-78.074
X192.04 Y-78.085
X191.835 Y-78.095
X191.631 Y-78.103
X191.427 Y-78.11
X191.222 Y-78.116
X191.018 Y-78.122
X190.813 Y-78.126
X190.609 Y-78.13
X190.404 Y-78.133
X190.2 Y-78.136
X189.995 Y-78.141
X189.791 Y-78.15
X189.587 Y-78.16
X189.382 Y-78.172
X189.178 Y-78.184
X188.974 Y-78.197
X188.77 Y-78.209
X188.566 Y-78.222
X188.362 Y-78.233
X188.157 Y-78.244
X187.953 Y-78.254
X187.749 Y-78.264
X187.544 Y-78.272
X187.34 Y-78.28
X187.136 Y-78.288
X186.931 Y-78.294
X186.727 Y-78.3
X186.522 Y-78.306
X186.318 Y-78.31
X186.113 Y-78.315
X185.909 Y-78.319
X185.704 Y-78.322
X185.5 Y-78.325
X185.295 Y-78.328
X185.091 Y-78.33
X184.886 Y-78.333
X184.682 Y-78.335
X184.477 Y-78.336
X184.273 Y-78.338
X184.068 Y-78.339
X183.864 Y-78.34
X183.659 Y-78.341
X183.455 Y-78.342
X183.045 Y-78.344
X182.636 Y-78.345
X182.227 Y-78.346
X182.023 Y-78.347
X181.818 Y-78.348
X181.614 Y-78.35
X181.409 Y-78.353
X181.205 Y-78.357
X181. Y-78.362
X180.796 Y-78.368
X180.591 Y-78.375
X180.387 Y-78.382
X180.183 Y-78.39
X179.978 Y-78.398
X179.365 Y-78.423
X179.161 Y-78.431
X178.956 Y-78.439
X178.755 Y-78.474
X178.553 Y-78.506
X178.35 Y-78.533
X178.147 Y-78.557
X177.944 Y-78.578
X177.74 Y-78.597
X177.536 Y-78.614
X177.332 Y-78.628
X177.128 Y-78.641
X176.924 Y-78.652
X176.719 Y-78.662
X176.515 Y-78.671
X176.311 Y-78.679
X176.106 Y-78.686
X175.902 Y-78.692
X175.697 Y-78.698
X175.493 Y-78.703
X175.288 Y-78.707
X175.084 Y-78.711
X174.879 Y-78.714
X174.675 Y-78.717
X174.47 Y-78.72
X174.266 Y-78.722
X174.061 Y-78.724
X173.857 Y-78.726
X173.652 Y-78.728
X173.448 Y-78.729
X173.243 Y-78.731
X173.039 Y-78.732
X172.834 Y-78.733
X172.63 Y-78.734
X172.221 Y-78.735
X171.811 Y-78.736
X171.402 Y-78.737
X170.789 Y-78.738
X170.175 Y-78.739
X169.357
X168.13 Y-78.74
X166.085
X159.539
X129.064
X78.953
X28.842
X-21.268
X-71.379
X-121.49
X-160.147
X-160.351 Y-78.739
X-160.556 Y-78.735
X-160.76 Y-78.728
X-160.965 Y-78.719
X-161.169 Y-78.709
X-161.373 Y-78.699
X-161.782 Y-78.677
X-161.986 Y-78.667
X-162.19 Y-78.657
X-162.395 Y-78.647
X-162.599 Y-78.638
X-162.803 Y-78.629
X-163.008 Y-78.621
X-163.212 Y-78.613
X-163.417 Y-78.607
X-163.621 Y-78.6
X-163.825 Y-78.595
X-164.03 Y-78.589
X-164.234 Y-78.584
X-164.439 Y-78.58
X-164.643 Y-78.576
X-164.848 Y-78.573
X-165.052 Y-78.57
X-165.257 Y-78.567
X-165.461 Y-78.564
X-165.666 Y-78.562
X-165.87 Y-78.56
X-166.075 Y-78.558
X-166.279 Y-78.557
X-166.484 Y-78.555
X-166.689 Y-78.554
X-166.893 Y-78.553
X-167.098 Y-78.552
X-167.302 Y-78.551
X-167.711 Y-78.55
X-168.12 Y-78.548
X-168.325
X-168.529 Y-78.547
X-168.734 Y-78.546
X-168.938 Y-78.543
X-169.143 Y-78.54
X-169.347 Y-78.535
X-169.552 Y-78.53
X-169.756 Y-78.523
X-169.961 Y-78.516
X-170.165 Y-78.509
X-170.369 Y-78.501
X-170.574 Y-78.493
X-171.187 Y-78.469
X-171.391 Y-78.461
X-171.596 Y-78.453
X-171.8 Y-78.446
X-171.901 Y-78.428
X-172.052 Y-78.403
X-172.218 Y-78.379
X-172.401 Y-78.354
X-172.604 Y-78.33
X-172.807 Y-78.309
X-173.011 Y-78.29
X-173.215 Y-78.273
X-173.419 Y-78.259
X-173.623 Y-78.246
X-173.827 Y-78.235
X-174.032 Y-78.225
X-174.236 Y-78.216
X-174.44 Y-78.208
X-174.645 Y-78.202
X-174.849 Y-78.196
X-175.054 Y-78.191
X-175.258 Y-78.186
X-175.463 Y-78.182
X-175.667 Y-78.178
X-175.872 Y-78.175
X-176.076 Y-78.173
X-176.281 Y-78.17
X-176.485 Y-78.168
X-176.69 Y-78.166
X-176.894 Y-78.165
X-177.099 Y-78.163
X-177.303 Y-78.162
X-177.508 Y-78.161
X-177.712 Y-78.16
X-177.917 Y-78.159
X-178.326 Y-78.158
X-178.735 Y-78.157
X-179.144 Y-78.156
X-179.758 Y-78.155
X-180.576 Y-78.154
X-181.599
X-183.235 Y-78.153
X-187.121
X-191.774
X-191.823 Y-78.137
X-191.863 Y-78.106
X-191.979 Y-77.937
X-192.06 Y-77.749
X-192.126 Y-77.556
X-192.182 Y-77.359
X-192.228 Y-77.16
X-192.267 Y-76.959
X-192.299 Y-76.757
X-192.327 Y-76.554
X-192.35 Y-76.351
X-192.37 Y-76.148
X-192.387 Y-75.944
X-192.402 Y-75.74
X-192.414 Y-75.536
X-192.425 Y-75.331
X-192.434 Y-75.127
X-192.441 Y-74.923
X-192.448 Y-74.718
X-192.453 Y-74.514
X-192.458 Y-74.309
X-192.462 Y-74.105
X-192.466 Y-73.9
X-192.469 Y-73.696
X-192.471 Y-73.491
X-192.473 Y-73.287
X-192.475 Y-73.082
X-192.477 Y-72.878
X-192.478 Y-72.673
X-192.479 Y-72.469
X-192.48 Y-72.264
X-192.481 Y-72.06
X-192.482 Y-71.855
X-192.483 Y-71.446
X-192.484 Y-71.037
X-192.485 Y-70.423
X-192.486 Y-69.81
Y-68.787
Y-67.151
Y-64.492
X-192.487 Y-64.287
X-192.488 Y-64.185
X-192.492 Y-63.981
X-192.5 Y-63.776
X-192.509 Y-63.572
X-192.52 Y-63.368
X-192.531 Y-63.163
X-192.543 Y-62.959
X-192.554 Y-62.755
X-192.565 Y-62.551
X-192.576 Y-62.346
X-192.586 Y-62.142
X-192.595 Y-61.938
X-192.604 Y-61.733
X-192.612 Y-61.529
X-192.619 Y-61.325
X-192.633 Y-60.916
X-192.64 Y-60.711
X-192.647 Y-60.507
X-192.656 Y-60.303
X-192.664 Y-60.098
X-192.674 Y-59.894
X-192.684 Y-59.69
X-192.694 Y-59.485
X-192.724 Y-58.873
X-192.735 Y-58.668
X-192.744 Y-58.464
X-192.754 Y-58.26
X-192.763 Y-58.055
X-192.772 Y-57.851
X-192.781 Y-57.647
X-192.788 Y-57.442
X-192.796 Y-57.238
X-192.803 Y-57.034
X-192.81 Y-56.829
X-192.816 Y-56.625
X-192.821 Y-56.42
X-192.826 Y-56.216
X-192.831 Y-56.011
X-192.836 Y-55.807
X-192.84 Y-55.602
X-192.843 Y-55.398
X-192.847 Y-55.193
X-192.85 Y-54.989
X-192.853 Y-54.784
X-192.855 Y-54.58
X-192.858 Y-54.375
X-192.86 Y-54.171
X-192.862 Y-53.966
X-192.863 Y-53.762
X-192.865 Y-53.557
X-192.866 Y-53.353
X-192.868 Y-53.148
X-192.869 Y-52.944
X-192.87 Y-52.739
X-192.871 Y-52.33
X-192.873 Y-51.921
X-192.874 Y-51.512
X-192.875 Y-50.898
X-192.876 Y-50.285
X-192.877 Y-49.466
Y-48.444
Y-48.239
X-192.905 Y-48.037
X-192.929 Y-47.833
X-192.95 Y-47.63
X-192.967 Y-47.426
X-192.982 Y-47.222
X-192.995 Y-47.018
X-193.006 Y-46.814
X-193.016 Y-46.61
X-193.024 Y-46.405
X-193.031 Y-46.201
X-193.037 Y-45.996
X-193.042 Y-45.792
X-193.046 Y-45.587
X-193.05 Y-45.383
X-193.053 Y-45.178
X-193.056 Y-44.974
X-193.059 Y-44.769
X-193.061 Y-44.565
X-193.063 Y-44.36
X-193.064 Y-44.156
X-193.065 Y-43.951
X-193.067 Y-43.747
X-193.068 Y-43.542
Y-43.338
X-193.069 Y-43.133
X-193.07 Y-42.724
X-193.071 Y-42.315
X-193.072 Y-41.701
X-193.073 Y-41.088
Y-40.065
X-193.074 Y-38.838
Y-38.633
Y-38.429
X-193.075 Y-38.224
Y-38.02
X-193.077 Y-37.815
X-193.079 Y-37.611
X-193.081 Y-37.406
X-193.084 Y-37.202
X-193.088 Y-36.997
X-193.092 Y-36.793
X-193.096 Y-36.588
X-193.101 Y-36.384
X-193.107 Y-36.179
X-193.113 Y-35.975
X-193.119 Y-35.77
X-193.125 Y-35.566
X-193.132 Y-35.361
X-193.158 Y-34.544
X-193.165 Y-34.339
X-193.171 Y-34.135
X-193.177 Y-33.93
X-193.183 Y-33.726
X-193.189 Y-33.522
X-193.195 Y-33.317
X-193.2 Y-33.113
X-193.205 Y-32.908
X-193.21 Y-32.704
X-193.214 Y-32.499
X-193.219 Y-32.295
X-193.223 Y-32.09
X-193.226 Y-31.886
X-193.23 Y-31.681
X-193.233 Y-31.477
X-193.236 Y-31.272
X-193.239 Y-31.068
X-193.242 Y-30.863
X-193.244 Y-30.659
X-193.246 Y-30.454
X-193.248 Y-30.25
X-193.25 Y-30.045
X-193.252 Y-29.841
X-193.254 Y-29.636
X-193.255 Y-29.432
X-193.256 Y-29.227
X-193.258 Y-29.022
X-193.26 Y-28.613
X-193.262 Y-28.204
X-193.263 Y-27.795
X-193.264 Y-27.386
X-193.266 Y-26.773
X-193.267 Y-26.159
Y-25.545
X-193.268 Y-24.727
X-193.269 Y-23.705
Y-22.068
Y-21.301
X-193.27 Y-21.277
X-193.273 Y-21.254
X-193.277 Y-21.231
X-193.492 Y-20.28
X-193.514 Y-20.185
X-193.534 Y-20.09
X-193.732 Y-19.138
X-193.752 Y-19.043
X-193.771 Y-18.947
X-193.789 Y-18.852
X-193.97 Y-17.9
X-193.988 Y-17.805
X-194.053 Y-17.424
X-194.166 Y-16.757
X-194.182 Y-16.662
X-194.197 Y-16.567
X-194.356 Y-15.52
X-194.369 Y-15.424
X-194.382 Y-15.329
X-194.496 Y-14.472
X-194.509 Y-14.377
X-194.521 Y-14.282
X-194.642 Y-13.235
X-194.653 Y-13.139
X-194.663 Y-13.044
X-194.764 Y-11.997
X-194.772 Y-11.902
X-194.78 Y-11.806
X-194.847 Y-10.949
X-194.854 Y-10.854
X-194.861 Y-10.759
X-194.867 Y-10.664
X-194.925 Y-9.712
X-194.93 Y-9.616
X-194.935 Y-9.521
X-194.94 Y-9.426
X-194.98 Y-8.474
X-194.983 Y-8.379
X-194.986 Y-8.284
X-195.011 Y-7.236
X-195.013 Y-7.141
X-195.014 Y-6.951
X-195.018 Y-6.189
Y-6.094
Y-5.998
X-195.017 Y-5.903
X-195.006 Y-4.951
X-195.005 Y-4.856
X-195.003 Y-4.761
X-195. Y-4.665
X-194.97 Y-3.713
X-194.967 Y-3.618
X-194.963 Y-3.523
X-194.911 Y-2.476
X-194.905 Y-2.38
X-194.842 Y-1.428
X-194.835 Y-1.333
X-194.828 Y-1.238
X-194.821 Y-1.143
X-194.739 Y-0.19
X-194.731 Y-0.095
X-194.722 Y0.
X-194.712 Y0.095
X-194.612 Y1.047
X-194.602 Y1.143
X-194.591 Y1.238
X-194.579 Y1.333
X-194.474 Y2.19
X-194.462 Y2.285
X-194.45 Y2.38
X-194.301 Y3.428
X-194.288 Y3.523
X-194.273 Y3.618
X-194.105 Y4.668
X-194.089 Y4.761
X-194.072 Y4.856
X-193.884 Y5.903
X-193.847 Y6.094
X-193.677 Y6.951
X-193.657 Y7.046
X-193.638 Y7.141
X-193.596 Y7.331
X-193.563 Y7.533
X-193.524 Y7.734
X-193.49 Y7.936
X-193.46 Y8.138
X-193.434 Y8.341
X-193.412 Y8.544
X-193.392 Y8.748
X-193.376 Y8.952
X-193.361 Y9.156
X-193.349 Y9.36
X-193.338 Y9.564
X-193.328 Y9.768
X-193.32 Y9.973
X-193.313 Y10.177
X-193.307 Y10.382
X-193.302 Y10.586
X-193.298 Y10.791
X-193.294 Y10.995
X-193.29 Y11.2
X-193.287 Y11.404
X-193.285 Y11.609
X-193.283 Y11.813
X-193.281 Y12.018
X-193.279 Y12.222
X-193.278 Y12.427
X-193.277 Y12.631
X-193.276 Y12.836
X-193.275 Y13.04
X-193.274 Y13.245
X-193.273 Y13.654
X-193.272 Y14.063
X-193.271 Y14.677
Y15.29
X-193.27 Y16.108
Y17.54
Y20.608
Y35.539
X-193.268 Y35.743
X-193.263 Y35.948
X-193.256 Y36.152
X-193.247 Y36.357
X-193.237 Y36.561
X-193.227 Y36.765
X-193.205 Y37.174
X-193.195 Y37.378
X-193.185 Y37.582
X-193.175 Y37.787
X-193.166 Y37.991
X-193.157 Y38.195
X-193.149 Y38.4
X-193.142 Y38.604
X-193.135 Y38.809
X-193.127 Y39.013
X-193.12 Y39.217
X-193.111 Y39.422
X-193.102 Y39.626
X-193.093 Y39.83
X-193.083 Y40.035
X-193.073 Y40.239
X-193.042 Y40.852
X-193.032 Y41.056
X-193.022 Y41.26
X-193.012 Y41.465
X-193.003 Y41.669
X-192.994 Y41.873
X-192.985 Y42.078
X-192.977 Y42.282
X-192.969 Y42.486
X-192.962 Y42.691
X-192.955 Y42.895
X-192.948 Y43.1
X-192.942 Y43.304
X-192.936 Y43.508
X-192.931 Y43.713
X-192.926 Y43.917
X-192.922 Y44.122
X-192.918 Y44.326
X-192.914 Y44.531
X-192.91 Y44.735
X-192.907 Y44.94
X-192.904 Y45.144
X-192.902 Y45.349
X-192.899 Y45.553
X-192.897 Y45.758
X-192.895 Y45.963
X-192.893 Y46.167
X-192.892 Y46.372
X-192.89 Y46.576
X-192.889 Y46.781
X-192.888 Y46.985
X-192.887 Y47.19
X-192.885 Y47.599
X-192.883 Y48.008
X-192.882 Y48.417
X-192.881 Y48.826
X-192.88 Y49.44
Y50.053
X-192.879 Y50.871
X-192.878 Y52.098
Y53.939
Y57.416
Y57.621
X-192.864 Y57.722
X-192.843 Y57.887
X-192.822 Y58.071
X-192.802 Y58.275
X-192.785 Y58.479
X-192.77 Y58.683
X-192.757 Y58.887
X-192.746 Y59.091
X-192.737 Y59.295
X-192.729 Y59.5
X-192.722 Y59.704
X-192.716 Y59.909
X-192.711 Y60.113
X-192.707 Y60.318
X-192.703 Y60.522
X-192.7 Y60.727
X-192.698 Y60.931
X-192.695 Y61.136
X-192.693 Y61.34
X-192.69 Y61.749
X-192.688 Y61.954
X-192.686 Y62.158
X-192.683 Y62.363
X-192.68 Y62.567
X-192.677 Y62.772
X-192.672 Y62.976
X-192.668 Y63.181
X-192.663 Y63.385
X-192.657 Y63.59
X-192.651 Y63.794
X-192.644 Y63.999
X-192.638 Y64.203
X-192.631 Y64.407
X-192.603 Y65.225
X-192.596 Y65.43
X-192.59 Y65.634
X-192.583 Y65.838
X-192.577 Y66.043
X-192.571 Y66.247
X-192.565 Y66.452
X-192.559 Y66.656
X-192.554 Y66.861
X-192.549 Y67.065
X-192.544 Y67.27
X-192.539 Y67.474
X-192.535 Y67.679
X-192.531 Y67.883
X-192.527 Y68.088
X-192.524 Y68.292
X-192.521 Y68.497
X-192.518 Y68.701
X-192.515 Y68.906
X-192.512 Y69.11
X-192.51 Y69.315
X-192.508 Y69.519
X-192.506 Y69.724
X-192.504 Y69.928
X-192.502 Y70.133
X-192.501 Y70.337
X-192.499 Y70.542
X-192.498 Y70.746
X-192.497 Y70.951
X-192.495 Y71.36
X-192.493 Y71.769
X-192.492 Y72.178
X-192.491 Y72.587
X-192.49 Y73.201
X-192.489 Y73.814
X-192.488 Y74.632
Y75.029
X-192.471 Y75.077
X-192.44 Y75.118
X-192.272 Y75.233
X-192.086 Y75.319
X-191.894 Y75.39
X-191.698 Y75.449
X-191.5 Y75.499
X-191.3 Y75.54
X-191.098 Y75.576
X-190.896 Y75.605
X-190.693 Y75.631
X-190.489 Y75.653
X-190.286 Y75.671
X-190.082 Y75.687
X-189.878 Y75.7
X-189.674 Y75.712
X-189.469 Y75.722
X-189.265 Y75.73
X-189.06 Y75.738
X-188.856 Y75.744
X-188.652 Y75.749
X-188.447 Y75.754
X-188.243 Y75.758
X-188.038 Y75.762
X-187.834 Y75.765
X-187.629 Y75.769
X-187.425 Y75.774
X-187.22 Y75.779
X-187.016 Y75.786
X-186.811 Y75.793
X-186.607 Y75.8
X-186.403 Y75.809
X-186.199 Y75.817
X-186.038 Y75.827
X-185.834 Y75.841
X-185.63 Y75.858
X-185.427 Y75.877
X-185.223 Y75.897
X-185.019 Y75.917
X-184.816 Y75.937
X-184.612 Y75.957
X-184.409 Y75.975
X-184.205 Y75.993
X-184.001 Y76.009
X-183.797 Y76.025
X-183.593 Y76.039
X-183.389 Y76.052
X-183.185 Y76.064
X-182.98 Y76.075
X-182.776 Y76.085
X-182.572 Y76.095
X-182.367 Y76.103
X-182.163 Y76.11
X-181.959 Y76.117
X-181.754 Y76.123
X-181.55 Y76.129
X-181.345 Y76.134
X-181.141 Y76.138
X-180.936 Y76.142
X-180.732 Y76.146
X-180.527 Y76.149
X-180.323 Y76.152
X-180.118 Y76.154
X-179.914 Y76.156
X-179.709 Y76.158
X-179.505 Y76.16
X-179.3 Y76.162
X-179.096 Y76.163
X-178.891 Y76.164
X-178.687 Y76.166
X-178.482 Y76.167
X-178.073 Y76.168
X-177.664 Y76.169
X-177.255 Y76.17
X-176.641 Y76.172
X-176.028
X-175.209 Y76.173
X-173.982
X-172.141 Y76.174
X-170.505
X-170.301
X-170.096
X-169.892 Y76.175
X-169.687 Y76.176
X-169.483 Y76.177
X-169.278 Y76.179
X-169.073 Y76.181
X-168.869 Y76.184
X-168.664 Y76.188
X-168.46 Y76.192
X-168.255 Y76.197
X-168.051 Y76.202
X-167.847 Y76.207
X-167.642 Y76.213
X-167.438 Y76.22
X-167.233 Y76.226
X-166.824 Y76.24
X-166.416 Y76.253
X-166.211 Y76.26
X-166.007 Y76.266
X-165.802 Y76.273
X-165.598 Y76.279
X-165.393 Y76.285
X-165.189 Y76.291
X-164.984 Y76.296
X-164.78 Y76.302
X-164.576 Y76.307
X-164.371 Y76.312
X-164.167 Y76.316
X-163.962 Y76.32
X-163.758 Y76.324
X-163.553 Y76.328
X-163.349 Y76.331
X-163.144 Y76.335
X-162.94 Y76.338
X-162.735 Y76.34
X-162.531 Y76.343
X-162.326 Y76.345
X-162.121 Y76.348
X-161.917 Y76.35
X-161.712 Y76.351
X-161.508 Y76.353
X-161.303 Y76.355
X-161.099 Y76.356
X-160.894 Y76.357
X-160.69 Y76.358
X-160.281 Y76.361
X-160.076
X-159.872 Y76.362
X-159.669 Y76.391
X-159.466 Y76.415
X-159.263 Y76.436
X-159.059 Y76.454
X-158.855 Y76.47
X-158.651 Y76.483
X-158.447 Y76.494
X-158.242 Y76.504
X-158.038 Y76.513
X-157.834 Y76.52
X-157.629 Y76.526
X-157.425 Y76.532
X-157.22 Y76.536
X-157.016 Y76.54
X-156.811 Y76.544
X-156.607 Y76.547
X-156.402 Y76.549
X-156.198 Y76.551
X-155.993 Y76.553
X-155.789 Y76.555
X-155.584 Y76.556
X-155.38 Y76.558
X-155.175 Y76.559
X-154.97 Y76.56
X-154.766
X-154.357 Y76.562
X-153.948 Y76.563
X-153.334 Y76.564
X-152.721
X-151.902 Y76.565
X-150.675
X-148.221
X-109.973
X-59.862
X-9.751
X40.359
X90.47
X140.581
X162.262
X162.466
X162.671 Y76.563
X162.875 Y76.561
X163.08 Y76.558
X163.284 Y76.553
X163.489 Y76.548
X163.693 Y76.542
X163.897 Y76.535
X164.102 Y76.528
X164.306 Y76.516
X164.51 Y76.502
X164.714 Y76.486
X164.918 Y76.469
X165.122 Y76.451
X165.325 Y76.432
X165.529 Y76.414
X165.733 Y76.396
X165.937 Y76.379
X166.14 Y76.363
X166.344 Y76.347
X166.548 Y76.332
X166.752 Y76.318
X166.956 Y76.305
X167.161 Y76.293
X167.365 Y76.282
X167.569 Y76.271
X167.773 Y76.262
X167.978 Y76.253
X168.182 Y76.245
X168.387 Y76.238
X168.591 Y76.231
X168.795 Y76.225
X169. Y76.22
X169.204 Y76.215
X169.409 Y76.21
X169.613 Y76.207
X169.818 Y76.203
X170.022 Y76.2
X170.227 Y76.197
X170.431 Y76.194
X170.636 Y76.192
X170.84 Y76.19
X171.045 Y76.188
X171.25 Y76.186
X171.454 Y76.185
X171.659 Y76.184
X171.863 Y76.183
X172.068 Y76.182
X172.272 Y76.181
X172.681 Y76.179
X173.09 Y76.178
X173.499 Y76.177
X174.113 Y76.176
X174.727 Y76.175
X175.545
X176.772 Y76.174
X178.817
X180.249
X180.454
X180.658 Y76.173
X180.863 Y76.172
X181.067 Y76.171
X181.272 Y76.168
X181.476 Y76.166
X181.681 Y76.162
X181.885 Y76.158
X182.09 Y76.154
X182.294 Y76.149
X182.499 Y76.143
X182.703 Y76.137
X182.907 Y76.131
X183.112 Y76.125
X183.316 Y76.118
X184.134 Y76.091
X184.338 Y76.085
X184.543 Y76.078
X184.747 Y76.072
X184.952 Y76.066
X185.156 Y76.06
X185.361 Y76.054
X185.565 Y76.049
X185.77 Y76.044
X185.974 Y76.039
X186.179 Y76.034
X186.383 Y76.03
X186.588 Y76.026
X186.792 Y76.022
X186.997 Y76.018
X187.201 Y76.015
X187.406 Y76.012
X187.61 Y76.009
X187.815 Y76.006
X188.019 Y76.004
X188.224 Y76.002
X188.428 Y75.999
X188.633 Y75.997
X188.837 Y75.996
X189.042 Y75.994
X189.246 Y75.992
X189.451 Y75.991
X189.655 Y75.99
X189.86 Y75.989
X190.269 Y75.987
X190.678 Y75.985
X190.883 Y75.984
X190.984 Y75.97
X191.146 Y75.949
X191.327 Y75.928
X191.531 Y75.907
X191.62 Y75.899
X191.671 Y75.895
X191.718 Y75.875
X191.87 Y75.739
X191.968 Y75.559
X192.048 Y75.371
X192.115 Y75.177
X192.17 Y74.981
X192.217 Y74.781
X192.256 Y74.581
X192.289 Y74.379
X192.318 Y74.176
X192.342 Y73.973
X192.363 Y73.77
X192.38 Y73.566
X192.395 Y73.362
X192.408 Y73.158
X192.419 Y72.954
X192.429 Y72.749
X192.437 Y72.545
X192.444 Y72.341
X192.45 Y72.136
X192.455 Y71.932
X192.459 Y71.727
X192.463 Y71.523
X192.466 Y71.318
X192.469 Y71.114
X192.472 Y70.909
X192.474 Y70.705
X192.475 Y70.5
X192.477 Y70.296
X192.478 Y70.091
X192.479 Y69.886
X192.48 Y69.682
X192.481 Y69.477
X192.482 Y69.273
X192.483 Y68.864
X192.484 Y68.455
X192.485 Y67.841
Y67.228
X192.486 Y66.205
Y64.569
X192.487 Y64.364
Y64.16
X192.489 Y63.955
X192.492 Y63.751
X192.495 Y63.546
X192.5 Y63.342
X192.506 Y63.137
X192.513 Y62.933
X192.52 Y62.728
X192.528 Y62.524
X192.536 Y62.319
X192.553 Y61.911
X192.561 Y61.706
X192.569 Y61.502
X192.578 Y61.298
X192.585 Y61.093
X192.593 Y60.889
X192.6 Y60.684
X192.607 Y60.48
X192.613 Y60.276
X192.619 Y60.071
X192.625 Y59.867
X192.63 Y59.662
X192.635 Y59.458
X192.639 Y59.253
X192.643 Y59.049
X192.647 Y58.844
X192.651 Y58.64
X192.654 Y58.435
X192.657 Y58.231
X192.659 Y58.026
X192.661 Y57.924
X192.666 Y57.736
X192.674 Y57.532
X192.685 Y57.328
X192.696 Y57.124
X192.709 Y56.919
X192.722 Y56.715
X192.734 Y56.511
X192.747 Y56.307
X192.759 Y56.103
X192.77 Y55.898
X192.78 Y55.694
X192.79 Y55.49
X192.799 Y55.286
X192.807 Y55.081
X192.815 Y54.877
X192.821 Y54.672
X192.827 Y54.468
X192.833 Y54.264
X192.838 Y54.059
X192.843 Y53.855
X192.847 Y53.65
X192.85 Y53.446
X192.853 Y53.241
X192.856 Y53.037
X192.859 Y52.832
X192.861 Y52.627
X192.863 Y52.423
X192.865 Y52.218
X192.866 Y52.014
X192.868 Y51.809
X192.87 Y51.4
X192.872 Y51.196
X192.873 Y50.991
X192.875 Y50.787
X192.878 Y50.582
X192.881 Y50.378
X192.884 Y50.173
X192.888 Y49.969
X192.892 Y49.764
X192.897 Y49.56
X192.903 Y49.355
X192.908 Y49.151
X192.914 Y48.946
X192.921 Y48.742
X192.928 Y48.538
X192.941 Y48.129
X192.955 Y47.72
X192.962 Y47.515
X192.968 Y47.311
X192.975 Y47.107
X192.981 Y46.902
X192.987 Y46.698
X192.993 Y46.493
X192.999 Y46.289
X193.004 Y46.084
X193.01 Y45.88
X193.014 Y45.675
X193.019 Y45.471
X193.023 Y45.266
X193.027 Y45.062
X193.031 Y44.857
X193.035 Y44.653
X193.038 Y44.448
X193.041 Y44.244
X193.044 Y44.039
X193.046 Y43.835
X193.049 Y43.63
X193.051 Y43.426
X193.053 Y43.221
X193.055 Y43.017
X193.057 Y42.812
X193.058 Y42.608
X193.06 Y42.403
X193.061 Y42.199
X193.062 Y41.994
X193.064 Y41.585
X193.066 Y41.176
X193.068 Y40.767
X193.069 Y40.358
X193.07 Y39.744
X193.071 Y39.131
X193.072 Y38.313
X193.073 Y37.29
Y36.063
X193.074 Y34.017
Y28.495
Y27.063
Y26.859
X193.102 Y26.656
X193.125 Y26.453
X193.146 Y26.249
X193.163 Y26.046
X193.178 Y25.842
X193.191 Y25.637
X193.202 Y25.433
X193.212 Y25.229
X193.22 Y25.025
X193.227 Y24.82
X193.233 Y24.616
X193.238 Y24.411
X193.242 Y24.207
X193.246 Y24.002
X193.249 Y23.798
X193.252 Y23.593
X193.254 Y23.389
X193.257 Y23.184
X193.258 Y22.98
X193.26 Y22.775
X193.261 Y22.571
X193.262 Y22.366
X193.263 Y22.162
X193.264 Y21.957
X193.265 Y21.752
X193.266 Y21.343
X193.267 Y20.934
X193.268 Y20.321
Y19.707
X193.269 Y18.684
Y17.048
X193.27 Y12.753
Y-23.04
Y-35.312
X193.269 Y-35.517
X193.268 Y-35.722
X193.266 Y-35.926
X193.263 Y-36.131
X193.259 Y-36.335
X193.254 Y-36.54
X193.248 Y-36.744
X193.241 Y-36.948
X193.234 Y-37.153
X193.227 Y-37.357
X193.219 Y-37.562
X193.195 Y-38.175
X193.188 Y-38.379
X193.18 Y-38.584
X193.173 Y-38.788
X193.165 Y-38.992
X193.159 Y-39.197
X193.152 Y-39.401
X193.146 Y-39.606
X193.14 Y-39.81
X193.135 Y-40.015
X193.13 Y-40.219
X193.125 Y-40.424
X193.12 Y-40.628
X193.116 Y-40.833
X193.112 Y-41.037
X193.109 Y-41.242
X193.105 Y-41.446
X193.103 Y-41.651
X193.1 Y-41.855
X193.096 Y-42.06
X193.089 Y-42.264
X193.08 Y-42.468
X193.069 Y-42.673
X193.057 Y-42.877
X193.045 Y-43.081
X193.033 Y-43.285
X193.021 Y-43.489
X193.009 Y-43.693
X192.998 Y-43.898
X192.988 Y-44.102
X192.978 Y-44.306
X192.968 Y-44.511
X192.959 Y-44.715
X192.951 Y-44.919
X192.944 Y-45.124
X192.937 Y-45.328
X192.931 Y-45.533
X192.925 Y-45.737
X192.92 Y-45.941
X192.916 Y-46.146
X192.912 Y-46.35
X192.908 Y-46.555
X192.905 Y-46.759
X192.902 Y-46.964
X192.899 Y-47.168
X192.896 Y-47.373
X192.894 Y-47.578
X192.892 Y-47.782
X192.891 Y-47.987
X192.889 Y-48.191
X192.886 Y-48.6
X192.885 Y-48.805
X192.883 Y-49.009
X192.881 Y-49.214
X192.878 Y-49.418
X192.875 Y-49.623
X192.871 Y-49.827
X192.867 Y-50.032
X192.862 Y-50.236
X192.857 Y-50.441
X192.851 Y-50.645
X192.845 Y-50.85
X192.838 Y-51.054
X192.832 Y-51.258
X192.818 Y-51.667
X192.797 Y-52.281
X192.791 Y-52.485
X192.784 Y-52.689
X192.778 Y-52.894
X192.772 Y-53.098
X192.766 Y-53.303
X192.76 Y-53.507
X192.754 Y-53.712
X192.749 Y-53.916
X192.744 Y-54.121
X192.739 Y-54.325
X192.735 Y-54.53
X192.731 Y-54.734
X192.727 Y-54.939
X192.723 Y-55.143
X192.72 Y-55.348
X192.717 Y-55.552
X192.714 Y-55.757
X192.711 Y-55.961
X192.708 Y-56.166
X192.706 Y-56.37
X192.704 Y-56.575
X192.702 Y-56.779
X192.7 Y-56.984
X192.698 Y-57.188
X192.697 Y-57.393
X192.696 Y-57.597
X192.694 Y-57.802
X192.693 Y-58.006
X192.691 Y-58.415
X192.689 Y-58.824
X192.688 Y-59.234
X192.687 Y-59.643
X192.686 Y-60.256
X192.685 Y-60.87
X192.684 Y-61.688
X192.683 Y-62.711
Y-64.142
X192.682 Y-66.597
Y-73.142
Y-73.346
X192.668 Y-73.448
X192.647 Y-73.612
X192.626 Y-73.797
X192.606 Y-74.
X192.589 Y-74.204
X192.574 Y-74.408
X192.561 Y-74.612
X192.55 Y-74.817
X192.547 Y-74.88
X192.543 Y-74.983
X192.525 Y-75.03
X192.46 Y-75.109
X192.287 Y-75.219
X192.103 Y-75.308
X191.912 Y-75.381
X191.716 Y-75.441
X191.518 Y-75.492
X191.318 Y-75.535
X191.117 Y-75.571
X190.915 Y-75.603
X190.712 Y-75.63
X190.509 Y-75.656
X190.306 Y-75.679
X190.103 Y-75.701
X189.899 Y-75.721
X189.696 Y-75.74
X189.492 Y-75.758
X189.288 Y-75.775
X189.084 Y-75.791
X188.88 Y-75.806
X188.676 Y-75.82
X188.472 Y-75.833
X188.268 Y-75.846
X188.064 Y-75.857
X187.859 Y-75.868
X187.655 Y-75.878
X187.451 Y-75.887
X187.246 Y-75.896
X187.042 Y-75.904
X186.838 Y-75.911
X186.633 Y-75.917
X186.429 Y-75.923
X186.224 Y-75.929
X186.02 Y-75.934
X185.815 Y-75.938
X185.611 Y-75.942
X185.406 Y-75.946
X185.202 Y-75.949
X184.997 Y-75.952
X184.793 Y-75.955
X184.588 Y-75.958
X184.384 Y-75.96
X184.179 Y-75.962
X183.975 Y-75.964
X183.77 Y-75.965
X183.566 Y-75.967
X183.157 Y-75.969
X182.952 Y-75.97
X182.747 Y-75.972
X182.543 Y-75.973
X182.338 Y-75.975
X182.134 Y-75.978
X181.929 Y-75.981
X181.725 Y-75.984
X181.52 Y-75.988
X181.316 Y-75.993
X181.111 Y-75.998
X180.907 Y-76.003
X180.703 Y-76.009
X180.498 Y-76.016
X180.294 Y-76.022
X180.089 Y-76.029
X179.987 Y-76.033
X179.819 Y-76.041
X179.615 Y-76.054
X179.411 Y-76.069
X179.207 Y-76.086
X179.004 Y-76.104
X178.596 Y-76.14
X178.392 Y-76.158
X178.189 Y-76.175
X177.985 Y-76.191
X177.781 Y-76.206
X177.577 Y-76.221
X177.373 Y-76.234
X177.168 Y-76.247
X176.964 Y-76.258
X176.76 Y-76.269
X176.556 Y-76.278
X176.351 Y-76.287
X176.147 Y-76.295
X175.943 Y-76.303
X175.738 Y-76.309
X175.534 Y-76.315
X175.329 Y-76.321
X175.125 Y-76.326
X174.92 Y-76.33
X174.716 Y-76.335
X174.511 Y-76.338
X174.307 Y-76.342
X174.102 Y-76.344
X173.898 Y-76.347
X173.693 Y-76.35
X173.489 Y-76.352
X173.284 Y-76.354
X173.08 Y-76.355
X172.875 Y-76.357
X172.671 Y-76.358
X172.466 Y-76.36
X172.262 Y-76.361
X172.057 Y-76.362
X171.648 Y-76.363
X171.239 Y-76.365
X170.83 Y-76.366
X170.216 Y-76.367
X169.603 Y-76.368
X168.785
X167.762 Y-76.369
X166.126
X162.853 Y-76.37
X144.445
X144.24
X144.038 Y-76.398
X143.835 Y-76.421
X143.631 Y-76.442
X143.427 Y-76.459
X143.223 Y-76.474
X143.019 Y-76.487
X142.815 Y-76.498
X142.611 Y-76.507
X142.406 Y-76.516
X142.202 Y-76.522
X141.997 Y-76.528
X141.793 Y-76.534
X141.589 Y-76.538
X141.384 Y-76.542
X141.18 Y-76.545
X140.975 Y-76.548
X140.77 Y-76.55
X140.566 Y-76.552
X140.361 Y-76.554
X140.157 Y-76.556
X139.952 Y-76.557
X139.748 Y-76.558
X139.543 Y-76.559
X139.339 Y-76.56
X139.134 Y-76.561
X138.725 Y-76.562
X138.316 Y-76.563
X137.702 Y-76.564
X137.089
X136.066 Y-76.565
X134.43
X130.135
X94.341
X44.231
X-5.88
X-55.991
X-106.102
X-156.213
X-156.417
X-156.518 Y-76.551
X-156.683 Y-76.53
X-156.868 Y-76.509
X-157.071 Y-76.489
X-157.275 Y-76.472
X-157.479 Y-76.457
X-157.683 Y-76.444
X-157.887 Y-76.433
X-158.092 Y-76.424
X-158.296 Y-76.416
X-158.501 Y-76.409
X-158.705 Y-76.404
X-158.909 Y-76.399
X-159.318 Y-76.39
X-159.523 Y-76.385
X-159.727 Y-76.38
X-159.932 Y-76.374
X-160.136 Y-76.367
X-160.341 Y-76.36
X-160.545 Y-76.352
X-160.749 Y-76.344
X-160.954 Y-76.335
X-161.567 Y-76.309
X-161.771 Y-76.3
X-161.976 Y-76.292
X-162.18 Y-76.284
X-162.384 Y-76.276
X-162.589 Y-76.268
X-162.793 Y-76.261
X-162.997 Y-76.254
X-163.202 Y-76.248
X-163.406 Y-76.241
X-163.611 Y-76.236
X-163.815 Y-76.23
X-164.02 Y-76.225
X-164.224 Y-76.221
X-164.429 Y-76.216
X-164.633 Y-76.213
X-164.838 Y-76.209
X-165.042 Y-76.206
X-165.247 Y-76.202
X-165.451 Y-76.2
X-165.656 Y-76.197
X-165.86 Y-76.195
X-166.065 Y-76.193
X-166.269 Y-76.191
X-166.474 Y-76.189
X-166.678 Y-76.187
X-166.883 Y-76.186
X-167.292 Y-76.184
X-167.496 Y-76.182
X-167.701 Y-76.181
X-167.906 Y-76.179
X-168.11 Y-76.177
X-168.315 Y-76.175
X-168.519 Y-76.171
X-168.724 Y-76.168
X-168.928 Y-76.163
X-169.133 Y-76.159
X-169.337 Y-76.153
X-169.541 Y-76.148
X-169.746 Y-76.142
X-169.95 Y-76.135
X-170.155 Y-76.129
X-170.359 Y-76.122
X-170.564 Y-76.112
X-170.768 Y-76.1
X-170.972 Y-76.084
X-171.176 Y-76.068
X-171.379 Y-76.051
X-171.787 Y-76.016
X-171.991 Y-75.999
X-172.195 Y-75.982
X-172.398 Y-75.966
X-172.602 Y-75.951
X-172.806 Y-75.937
X-173.011 Y-75.923
X-173.215 Y-75.911
X-173.419 Y-75.899
X-173.623 Y-75.888
X-173.827 Y-75.878
X-174.032 Y-75.869
X-174.236 Y-75.861
X-174.441 Y-75.853
X-174.645 Y-75.846
X-174.849 Y-75.839
X-175.054 Y-75.834
X-175.258 Y-75.828
X-175.463 Y-75.823
X-175.667 Y-75.819
X-175.872 Y-75.815
X-176.076 Y-75.812
X-176.281 Y-75.809
X-176.485 Y-75.806
X-176.69 Y-75.803
X-176.894 Y-75.801
X-177.099 Y-75.799
X-177.303 Y-75.797
X-177.508 Y-75.795
X-177.712 Y-75.794
X-177.917 Y-75.793
X-178.121 Y-75.791
X-178.326 Y-75.79
X-178.531
X-178.94 Y-75.788
X-179.349 Y-75.787
X-179.758 Y-75.786
X-180.371 Y-75.785
X-180.985 Y-75.784
X-181.803 Y-75.783
X-183.03
X-184.871
X-189.371 Y-75.782
X-189.419 Y-75.766
X-189.46 Y-75.735
X-189.576 Y-75.567
X-189.661 Y-75.381
X-189.731 Y-75.188
X-189.789 Y-74.992
X-189.838 Y-74.794
X-189.879 Y-74.593
X-189.913 Y-74.392
X-189.943 Y-74.189
X-189.968 Y-73.986
X-189.989 Y-73.783
X-190.007 Y-73.579
X-190.023 Y-73.375
X-190.036 Y-73.171
X-190.047 Y-72.967
X-190.057 Y-72.763
X-190.065 Y-72.558
X-190.073 Y-72.354
X-190.079 Y-72.149
X-190.084 Y-71.945
X-190.088 Y-71.74
X-190.092 Y-71.536
X-190.096 Y-71.331
X-190.098 Y-71.127
X-190.101 Y-70.922
X-190.103 Y-70.718
X-190.105 Y-70.513
X-190.106 Y-70.309
X-190.108 Y-70.104
X-190.109 Y-69.9
X-190.11 Y-69.695
X-190.111 Y-69.491
Y-69.286
X-190.112 Y-68.877
X-190.113 Y-68.468
X-190.114 Y-67.854
X-190.115 Y-67.241
Y-66.218
Y-65.605
X-190.116 Y-65.4
Y-65.195
X-190.118 Y-64.991
X-190.12 Y-64.786
X-190.124 Y-64.582
X-190.129 Y-64.377
X-190.134 Y-64.173
X-190.141 Y-63.969
X-190.148 Y-63.764
X-190.156 Y-63.56
X-190.164 Y-63.355
X-190.172 Y-63.151
X-190.189 Y-62.742
X-190.197 Y-62.538
X-190.205 Y-62.334
X-190.213 Y-62.129
X-190.237 Y-61.516
X-190.245 Y-61.312
X-190.253 Y-61.107
X-190.261 Y-60.903
X-190.269 Y-60.699
X-190.278 Y-60.494
X-190.287 Y-60.29
X-190.296 Y-60.086
X-190.305 Y-59.881
X-190.343 Y-59.064
X-190.353 Y-58.86
X-190.39 Y-58.658
X-190.422 Y-58.457
X-190.451 Y-58.254
X-190.477 Y-58.051
X-190.5 Y-57.848
X-190.521 Y-57.644
X-190.539 Y-57.441
X-190.555 Y-57.237
X-190.57 Y-57.033
X-190.583 Y-56.829
X-190.595 Y-56.625
X-190.606 Y-56.42
X-190.616 Y-56.216
X-190.624 Y-56.012
X-190.632 Y-55.807
X-190.639 Y-55.603
X-190.646 Y-55.398
X-190.651 Y-55.194
X-190.657 Y-54.99
X-190.661 Y-54.785
X-190.665 Y-54.581
X-190.669 Y-54.376
X-190.673 Y-54.172
X-190.676 Y-53.967
X-190.679 Y-53.763
X-190.681 Y-53.558
X-190.683 Y-53.353
X-190.685 Y-53.149
X-190.687 Y-52.944
X-190.689 Y-52.74
X-190.69 Y-52.535
X-190.692 Y-52.331
X-190.693 Y-52.126
X-190.694 Y-51.922
X-190.696 Y-51.513
X-190.697 Y-51.104
X-190.698 Y-50.695
X-190.699 Y-50.286
X-190.701 Y-49.467
X-190.703 Y-49.263
X-190.709 Y-49.058
X-190.718 Y-48.854
X-190.728 Y-48.65
X-190.738 Y-48.445
X-190.761 Y-48.037
X-190.772 Y-47.833
X-190.782 Y-47.629
X-190.793 Y-47.424
X-190.802 Y-47.22
X-190.811 Y-47.016
X-190.82 Y-46.811
X-190.827 Y-46.607
X-190.835 Y-46.402
X-190.841 Y-46.198
X-190.847 Y-45.994
X-190.853 Y-45.789
X-190.857 Y-45.585
X-190.862 Y-45.38
X-190.866 Y-45.176
X-190.869 Y-44.971
X-190.873 Y-44.767
X-190.876 Y-44.562
X-190.878 Y-44.358
X-190.881 Y-44.153
X-190.883 Y-43.949
X-190.884 Y-43.744
X-190.886 Y-43.54
X-190.888 Y-43.335
X-190.889 Y-43.13
X-190.89 Y-42.926
X-190.891 Y-42.721
X-190.892 Y-42.517
X-190.893 Y-42.108
X-190.895 Y-41.699
X-190.896 Y-41.29
X-190.897 Y-40.676
X-190.898 Y-39.449
Y-39.244
X-190.899 Y-39.04
X-190.9 Y-38.835
X-190.901 Y-38.631
X-190.902 Y-38.426
X-190.903 Y-38.222
X-190.905 Y-38.017
X-190.908 Y-37.813
X-190.91 Y-37.608
X-190.913 Y-37.404
X-190.917 Y-37.199
X-190.921 Y-36.995
X-190.925 Y-36.79
X-190.929 Y-36.586
X-190.934 Y-36.381
X-190.939 Y-36.177
X-190.944 Y-35.972
X-190.95 Y-35.768
X-190.955 Y-35.563
X-190.967 Y-35.154
X-190.984 Y-34.541
X-190.996 Y-34.132
X-191.001 Y-33.928
X-191.007 Y-33.723
X-191.012 Y-33.519
X-191.017 Y-33.314
X-191.022 Y-33.11
X-191.026 Y-32.905
X-191.031 Y-32.701
X-191.035 Y-32.496
X-191.039 Y-32.292
X-191.043 Y-32.087
X-191.047 Y-31.883
X-191.05 Y-31.678
X-191.053 Y-31.474
X-191.056 Y-31.269
X-191.059 Y-31.065
X-191.062 Y-30.86
X-191.065 Y-30.656
X-191.067 Y-30.451
X-191.069 Y-30.247
X-191.071 Y-30.042
X-191.073 Y-29.838
X-191.075 Y-29.633
X-191.076 Y-29.429
X-191.078 Y-29.224
X-191.079 Y-29.02
X-191.082 Y-28.644
X-191.084 Y-28.608
X-191.09 Y-28.572
X-191.101 Y-28.537
X-191.231 Y-28.183
X-191.247 Y-28.136
X-191.264 Y-28.088
X-191.592 Y-27.136
X-191.624 Y-27.04
X-191.656 Y-26.945
X-191.687 Y-26.85
X-191.966 Y-25.993
X-192.009 Y-25.856
X-192.026 Y-25.803
X-192.316 Y-24.851
X-192.345 Y-24.755
X-192.643 Y-23.708
X-192.669 Y-23.613
X-192.695 Y-23.518
X-192.962 Y-22.514
X-192.973 Y-22.47
X-192.997 Y-22.375
X-193.231 Y-21.423
G00 Z5.
X-194.19 Y6.41
Z-7.62
G01 Z-7.938 F1275.
X-194.185 Y6.416 Z-8.008
X-194.169 Y6.433 Z-8.075
X-194.143 Y6.461 Z-8.135
X-194.109 Y6.498 Z-8.186
X-194.067 Y6.542 Z-8.224
X-194.022 Y6.591 Z-8.247
X-193.973 Y6.642 Z-8.255
G03 X-193.596 Y7.331 I-1.156 J1.08
G01 X-193.409 Y8.188
X-193.388 Y8.284
X-193.366 Y8.379
X-193.117 Y9.426
X-193.093 Y9.521
X-193.069 Y9.616
X-192.823 Y10.569
X-192.798 Y10.664
X-192.771 Y10.762
X-192.508 Y11.711
X-192.486 Y11.79
X-192.453 Y11.902
X-192.39 Y12.114
X-192.143 Y12.949
X-192.113 Y13.044
X-191.962 Y13.52
X-191.81 Y13.996
X-191.78 Y14.091
X-191.749 Y14.187
X-191.724 Y14.262
X-191.588 Y14.663
X-191.532 Y14.859
X-191.474 Y15.056
X-191.424 Y15.254
X-191.38 Y15.454
X-191.342 Y15.655
X-191.309 Y15.857
X-191.28 Y16.059
X-191.255 Y16.262
X-191.233 Y16.465
X-191.214 Y16.669
X-191.198 Y16.873
X-191.184 Y17.077
X-191.172 Y17.281
X-191.161 Y17.486
X-191.152 Y17.69
X-191.144 Y17.894
X-191.137 Y18.099
X-191.131 Y18.303
X-191.126 Y18.508
X-191.122 Y18.712
X-191.118 Y18.917
X-191.115 Y19.121
X-191.112 Y19.326
X-191.11 Y19.53
X-191.108 Y19.735
X-191.106 Y19.939
X-191.104 Y20.144
X-191.103 Y20.348
X-191.102 Y20.553
X-191.101 Y20.757
X-191.1 Y20.962
X-191.099 Y21.166
X-191.098 Y21.575
X-191.097 Y21.984
X-191.096 Y22.598
Y23.212
X-191.095 Y24.234
Y25.871
Y30.166
X-191.094 Y34.256
Y34.461
X-191.093 Y34.666
X-191.092 Y34.87
X-191.089 Y35.075
X-191.085 Y35.279
X-191.08 Y35.484
X-191.074 Y35.688
X-191.068 Y35.892
X-191.061 Y36.097
X-191.054 Y36.301
X-191.046 Y36.506
X-191.014 Y37.323
X-190.991 Y37.936
X-190.983 Y38.141
X-190.975 Y38.345
X-190.967 Y38.549
X-190.959 Y38.754
X-190.95 Y38.958
X-190.941 Y39.163
X-190.932 Y39.367
X-190.923 Y39.571
X-190.904 Y39.98
X-190.885 Y40.388
X-190.876 Y40.593
X-190.866 Y40.797
X-190.857 Y41.001
X-190.848 Y41.206
X-190.84 Y41.41
X-190.831 Y41.614
X-190.823 Y41.819
X-190.815 Y42.023
X-190.808 Y42.228
X-190.8 Y42.432
X-190.794 Y42.636
X-190.787 Y42.841
X-190.781 Y43.045
X-190.775 Y43.25
X-190.77 Y43.454
X-190.764 Y43.659
X-190.759 Y43.863
X-190.755 Y44.068
X-190.751 Y44.272
X-190.747 Y44.477
X-190.743 Y44.681
X-190.74 Y44.886
X-190.736 Y45.09
X-190.733 Y45.295
X-190.731 Y45.499
X-190.728 Y45.704
X-190.726 Y45.908
X-190.724 Y46.113
X-190.722 Y46.317
X-190.72 Y46.522
X-190.719 Y46.726
X-190.717 Y46.931
X-190.716 Y47.135
X-190.714 Y47.34
X-190.713 Y47.544
X-190.711 Y47.953
X-190.71 Y48.363
X-190.708 Y48.772
X-190.707 Y49.181
X-190.706 Y49.794
X-190.705 Y50.408
X-190.704 Y51.226
Y52.249
X-190.703 Y53.68
Y56.135
X-190.701 Y56.339
X-190.696 Y56.544
X-190.689 Y56.748
X-190.68 Y56.953
X-190.67 Y57.157
X-190.659 Y57.361
X-190.638 Y57.77
X-190.627 Y57.974
X-190.617 Y58.178
X-190.608 Y58.382
X-190.598 Y58.587
X-190.59 Y58.791
X-190.582 Y58.996
X-190.575 Y59.2
X-190.568 Y59.404
X-190.562 Y59.609
X-190.556 Y59.813
X-190.551 Y60.018
X-190.546 Y60.222
X-190.542 Y60.427
X-190.538 Y60.631
X-190.534 Y60.836
X-190.524 Y61.449
X-190.52 Y61.654
X-190.516 Y61.858
X-190.513 Y62.063
X-190.508 Y62.267
X-190.504 Y62.472
X-190.499 Y62.676
X-190.494 Y62.881
X-190.489 Y63.085
X-190.484 Y63.29
X-190.478 Y63.494
X-190.472 Y63.698
X-190.466 Y63.903
X-190.454 Y64.312
X-190.441 Y64.721
X-190.435 Y64.925
X-190.418 Y65.026
X-190.393 Y65.186
X-190.367 Y65.364
X-190.341 Y65.564
X-190.318 Y65.767
X-190.297 Y65.97
X-190.279 Y66.174
X-190.262 Y66.378
X-190.248 Y66.582
X-190.235 Y66.786
X-190.223 Y66.99
X-190.212 Y67.195
X-190.203 Y67.399
X-190.195 Y67.603
X-190.187 Y67.808
X-190.18 Y68.012
X-190.174 Y68.217
X-190.168 Y68.421
X-190.163 Y68.626
X-190.159 Y68.83
X-190.155 Y69.035
X-190.151 Y69.239
X-190.148 Y69.444
X-190.145 Y69.648
X-190.142 Y69.853
X-190.139 Y70.057
X-190.137 Y70.262
X-190.135 Y70.466
X-190.133 Y70.671
X-190.131 Y70.875
X-190.13 Y71.08
X-190.128 Y71.284
X-190.127 Y71.489
X-190.126 Y71.693
X-190.124 Y72.102
X-190.123 Y72.499
X-190.122 Y72.652
X-190.106 Y72.7
X-190.075 Y72.741
X-189.906 Y72.856
X-189.72 Y72.943
X-189.529 Y73.015
X-189.333 Y73.074
X-189.135 Y73.124
X-188.935 Y73.166
X-188.733 Y73.202
X-188.531 Y73.233
X-188.328 Y73.26
X-188.125 Y73.283
X-187.922 Y73.304
X-187.718 Y73.323
X-187.514 Y73.34
X-187.31 Y73.356
X-187.106 Y73.371
X-186.902 Y73.386
X-186.698 Y73.401
X-186.494 Y73.417
X-186.291 Y73.433
X-186.087 Y73.45
X-185.883 Y73.467
X-185.679 Y73.484
X-185.272 Y73.52
X-185.068 Y73.538
X-184.864 Y73.555
X-184.66 Y73.572
X-184.456 Y73.588
X-184.252 Y73.604
X-184.048 Y73.62
X-183.844 Y73.634
X-183.64 Y73.648
X-183.436 Y73.661
X-183.232 Y73.673
X-183.028 Y73.684
X-182.824 Y73.694
X-182.619 Y73.704
X-182.415 Y73.713
X-182.211 Y73.721
X-182.006 Y73.729
X-181.802 Y73.736
X-181.597 Y73.742
X-181.393 Y73.748
X-181.188 Y73.754
X-180.984 Y73.759
X-180.779 Y73.763
X-180.575 Y73.767
X-180.37 Y73.771
X-180.166 Y73.774
X-179.961 Y73.777
X-179.757 Y73.78
X-179.552 Y73.782
X-179.348 Y73.784
X-179.143 Y73.786
X-178.939 Y73.788
X-178.734 Y73.79
X-178.53 Y73.791
X-178.325 Y73.792
X-178.121 Y73.794
X-177.916 Y73.795
X-177.507 Y73.796
X-177.098 Y73.798
X-176.689 Y73.799
X-176.075 Y73.8
X-175.462 Y73.801
X-174.644 Y73.802
X-173.621
X-172.189 Y73.803
X-171.371
X-170.962
X-170.757 Y73.804
X-170.553
X-170.348 Y73.805
X-170.144 Y73.806
X-169.939 Y73.807
X-169.735 Y73.809
X-169.53 Y73.811
X-169.326 Y73.814
X-169.121 Y73.817
X-168.917 Y73.82
X-168.712 Y73.824
X-168.508 Y73.828
X-168.303 Y73.832
X-168.099 Y73.837
X-167.894 Y73.842
X-167.69 Y73.847
X-167.485 Y73.853
X-167.281 Y73.858
X-166.872 Y73.87
X-166.259 Y73.888
X-165.85 Y73.9
X-165.645 Y73.905
X-165.441 Y73.911
X-165.236 Y73.916
X-165.032 Y73.921
X-164.827 Y73.926
X-164.623 Y73.931
X-164.419 Y73.936
X-164.214 Y73.94
X-164.01 Y73.944
X-163.805 Y73.948
X-163.601 Y73.952
X-163.396 Y73.955
X-163.192 Y73.959
X-162.987 Y73.962
X-162.783 Y73.965
X-162.578 Y73.967
X-162.373 Y73.97
X-162.169 Y73.972
X-161.964 Y73.975
X-161.76 Y73.977
X-161.555 Y73.978
X-161.351 Y73.98
X-161.146 Y73.982
X-160.942 Y73.984
X-160.737 Y73.989
X-160.533 Y73.997
X-160.329 Y74.007
X-160.124 Y74.018
X-159.92 Y74.031
X-159.716 Y74.043
X-159.512 Y74.055
X-159.308 Y74.067
X-159.104 Y74.079
X-158.899 Y74.089
X-158.695 Y74.1
X-158.491 Y74.109
X-158.286 Y74.118
X-158.082 Y74.126
X-157.878 Y74.133
X-157.673 Y74.139
X-157.469 Y74.145
X-157.264 Y74.151
X-157.06 Y74.156
X-156.855 Y74.16
X-156.651 Y74.164
X-156.446 Y74.167
X-156.242 Y74.17
X-156.037 Y74.173
X-155.833 Y74.176
X-155.628 Y74.178
X-155.424 Y74.18
X-155.219 Y74.182
X-155.015 Y74.183
X-154.81 Y74.185
X-154.606 Y74.186
X-154.401 Y74.187
X-154.197 Y74.188
X-153.787 Y74.189
X-153.378 Y74.191
X-152.969
X-152.356 Y74.193
X-151.742
X-150.924 Y74.194
X-149.697
X-148.061 Y74.195
X-147.856
X-147.653 Y74.222
X-147.45 Y74.246
X-147.247 Y74.267
X-147.043 Y74.284
X-146.839 Y74.299
X-146.635 Y74.312
X-146.431 Y74.323
X-146.226 Y74.332
X-146.022 Y74.34
X-145.817 Y74.347
X-145.613 Y74.353
X-145.409 Y74.359
X-145.204 Y74.363
X-145. Y74.367
X-144.795 Y74.37
X-144.591 Y74.373
X-144.386 Y74.375
X-144.181 Y74.377
X-143.977 Y74.379
X-143.772 Y74.381
X-143.568 Y74.382
X-143.363 Y74.383
X-143.159 Y74.384
X-142.954 Y74.385
X-142.75 Y74.386
X-142.341 Y74.387
X-141.932 Y74.388
X-141.318 Y74.389
X-140.704
X-139.682 Y74.39
X-138.046
X-133.75
X-97.957
X-47.846
X2.265
X52.376
X102.486
X152.597
X152.802
X152.903 Y74.376
X153.068 Y74.355
X153.252 Y74.334
X153.456 Y74.314
X153.659 Y74.297
X153.863 Y74.282
X154.068 Y74.269
X154.272 Y74.258
X154.476 Y74.249
X154.681 Y74.241
X154.885 Y74.234
X155.089 Y74.229
X155.294 Y74.224
X155.498 Y74.219
X155.703 Y74.216
X155.907 Y74.213
X156.112 Y74.21
X156.316 Y74.208
X156.521 Y74.206
X156.725 Y74.204
X156.93 Y74.203
X157.135 Y74.202
X157.339 Y74.2
X157.544
X157.748 Y74.199
X158.157 Y74.198
X158.566 Y74.197
X159.18 Y74.196
X159.793
X160.816 Y74.195
X161.225
X161.43
X161.634 Y74.194
X161.839 Y74.193
X162.043 Y74.192
X162.248 Y74.19
X162.452 Y74.187
X162.657 Y74.184
X162.861 Y74.18
X163.066 Y74.175
X163.27 Y74.168
X163.475 Y74.16
X163.679 Y74.15
X163.883 Y74.139
X164.087 Y74.127
X164.292 Y74.114
X164.496 Y74.101
X164.7 Y74.087
X164.904 Y74.072
X165.312 Y74.043
X165.516 Y74.029
X165.72 Y74.015
X165.924 Y74.001
X166.128 Y73.988
X166.332 Y73.975
X166.536 Y73.963
X166.74 Y73.951
X166.945 Y73.94
X167.149 Y73.929
X167.353 Y73.919
X167.558 Y73.91
X167.762 Y73.901
X167.966 Y73.893
X168.171 Y73.885
X168.375 Y73.878
X168.579 Y73.871
X168.784 Y73.865
X168.988 Y73.859
X169.193 Y73.854
X169.397 Y73.849
X169.602 Y73.845
X169.806 Y73.841
X170.011 Y73.837
X170.215 Y73.834
X170.42 Y73.831
X170.624 Y73.828
X170.829 Y73.826
X171.033 Y73.823
X171.238 Y73.821
X171.442 Y73.819
X171.647 Y73.818
X171.851 Y73.816
X172.056 Y73.815
X172.261 Y73.814
X172.465 Y73.812
X172.67 Y73.811
X173.079 Y73.81
X173.488 Y73.808
X173.897 Y73.807
X174.51 Y73.806
X175.124 Y73.805
X175.942 Y73.804
X176.965
X178.397 Y73.803
X179.215
X179.419
X179.624
X179.828
X180.033 Y73.802
X180.237 Y73.801
X180.442 Y73.8
X180.646 Y73.798
X180.851 Y73.796
X181.055 Y73.793
X181.26 Y73.79
X181.464 Y73.787
X181.669 Y73.783
X181.873 Y73.779
X182.078 Y73.774
X182.282 Y73.77
X182.487 Y73.764
X182.691 Y73.759
X182.896 Y73.753
X183.1 Y73.748
X183.509 Y73.736
X184.122 Y73.718
X184.531 Y73.707
X184.736 Y73.701
X184.94 Y73.696
X185.145 Y73.69
X185.349 Y73.685
X185.554 Y73.68
X185.758 Y73.676
X185.963 Y73.671
X186.167 Y73.667
X186.372 Y73.663
X186.576 Y73.659
X186.781 Y73.655
X186.985 Y73.651
X187.19 Y73.648
X187.394 Y73.645
X187.599 Y73.642
X187.803 Y73.639
X188.008 Y73.637
X188.212 Y73.634
X188.417 Y73.632
X188.621 Y73.63
X188.826 Y73.628
X189.133 Y73.626
X189.299 Y73.624
X189.347 Y73.608
X189.428 Y73.546
X189.539 Y73.374
X189.63 Y73.19
X189.704 Y73.
X189.765 Y72.805
X189.817 Y72.607
X189.861 Y72.407
X189.898 Y72.206
X189.929 Y72.004
X189.956 Y71.801
X189.978 Y71.598
X189.998 Y71.394
X190.015 Y71.19
X190.029 Y70.986
X190.041 Y70.782
X190.051 Y70.578
X190.06 Y70.373
X190.068 Y70.169
X190.075 Y69.964
X190.08 Y69.76
X190.085 Y69.556
X190.09 Y69.351
X190.093 Y69.147
X190.096 Y68.942
X190.099 Y68.738
X190.101 Y68.533
X190.103 Y68.328
X190.105 Y68.124
X190.107 Y67.919
X190.108 Y67.715
X190.109 Y67.51
X190.11 Y67.306
X190.111 Y67.101
X190.112 Y66.692
X190.113 Y66.283
X190.114 Y65.67
Y65.465
X190.115 Y65.26
Y65.056
X190.116 Y64.851
X190.118 Y64.647
X190.12 Y64.442
X190.122 Y64.238
X190.125 Y64.033
X190.129 Y63.829
X190.133 Y63.624
X190.138 Y63.42
X190.144 Y63.215
X190.149 Y63.011
X190.156 Y62.807
X190.162 Y62.602
X190.169 Y62.398
X190.183 Y61.989
X190.197 Y61.58
X190.204 Y61.376
X190.211 Y61.171
X190.217 Y60.967
X190.224 Y60.762
X190.23 Y60.558
X190.236 Y60.353
X190.241 Y60.149
X190.275 Y59.947
X190.303 Y59.745
X190.329 Y59.542
X190.35 Y59.338
X190.37 Y59.135
X190.387 Y58.931
X190.402 Y58.727
X190.417 Y58.523
X190.432 Y58.319
X190.446 Y58.115
X190.46 Y57.911
X190.474 Y57.707
X190.488 Y57.503
X190.501 Y57.299
X190.514 Y57.094
X190.527 Y56.89
X190.539 Y56.686
X190.551 Y56.482
X190.563 Y56.278
X190.573 Y56.074
X190.584 Y55.869
X190.593 Y55.665
X190.603 Y55.461
X190.611 Y55.256
X190.619 Y55.052
X190.626 Y54.848
X190.633 Y54.643
X190.64 Y54.439
X190.646 Y54.234
X190.651 Y54.03
X190.656 Y53.825
X190.66 Y53.621
X190.665 Y53.416
X190.668 Y53.212
X190.672 Y53.007
X190.675 Y52.803
X190.678 Y52.598
X190.681 Y52.394
X190.691 Y51.576
X190.693 Y51.371
X190.696 Y51.167
X190.699 Y50.962
X190.703 Y50.758
X190.706 Y50.553
X190.71 Y50.349
X190.714 Y50.144
X190.719 Y49.94
X190.724 Y49.735
X190.729 Y49.531
X190.734 Y49.326
X190.74 Y49.122
X190.746 Y48.917
X190.751 Y48.713
X190.763 Y48.304
X190.782 Y47.691
X190.794 Y47.282
X190.8 Y47.077
X190.805 Y46.873
X190.811 Y46.668
X190.816 Y46.464
X190.821 Y46.259
X190.826 Y46.055
X190.831 Y45.851
X190.836 Y45.646
X190.84 Y45.442
X190.844 Y45.237
X190.848 Y45.033
X190.852 Y44.828
X190.855 Y44.624
X190.858 Y44.419
X190.861 Y44.215
X190.864 Y44.01
X190.867 Y43.806
X190.87 Y43.601
X190.872 Y43.396
X190.874 Y43.192
X190.876 Y42.987
X190.878 Y42.783
X190.88 Y42.578
X190.881 Y42.374
X190.883 Y42.169
X190.884 Y41.965
X190.886 Y41.76
X190.888 Y41.351
X190.89 Y40.942
X190.891 Y40.533
X190.893 Y40.124
X190.894 Y39.51
X190.895 Y38.897
X190.896 Y38.283
X190.897 Y37.465
X190.898 Y36.442
Y35.011
X190.899 Y32.761
Y28.261
Y28.057
X190.902 Y27.852
X190.908 Y27.648
X190.917 Y27.443
X190.926 Y27.239
X190.937 Y27.035
X190.959 Y26.626
X190.97 Y26.422
X190.981 Y26.218
X190.991 Y26.013
X191. Y25.809
X191.009 Y25.605
X191.017 Y25.4
X191.025 Y25.196
X191.032 Y24.992
X191.038 Y24.787
X191.044 Y24.583
X191.049 Y24.378
X191.054 Y24.174
X191.058 Y23.969
X191.062 Y23.765
X191.066 Y23.56
X191.069 Y23.356
X191.072 Y23.151
X191.074 Y22.947
X191.077 Y22.742
X191.079 Y22.538
X191.081 Y22.333
X191.082 Y22.129
X191.084 Y21.924
X191.085 Y21.72
X191.086 Y21.515
X191.087 Y21.31
X191.088 Y21.106
X191.089 Y20.697
X191.09 Y20.288
X191.091 Y19.879
X191.092 Y19.265
X191.093 Y18.652
X191.094 Y17.833
Y16.606
Y14.561
Y10.266
Y-34.118
Y-34.323
Y-34.527
X191.093 Y-34.732
X191.092 Y-34.936
X191.091 Y-35.141
X191.089 Y-35.345
X191.086 Y-35.55
X191.083 Y-35.754
X191.079 Y-35.959
X191.074 Y-36.163
X191.07 Y-36.368
X191.064 Y-36.572
X191.059 Y-36.777
X191.053 Y-36.981
X191.047 Y-37.186
X191.04 Y-37.39
X191.014 Y-38.208
X191.008 Y-38.412
X191.001 Y-38.617
X190.995 Y-38.821
X190.989 Y-39.026
X190.984 Y-39.23
X190.978 Y-39.434
X190.973 Y-39.639
X190.967 Y-39.843
X190.963 Y-40.048
X190.946 Y-40.149
X190.923 Y-40.303
X190.899 Y-40.48
X190.874 Y-40.683
X190.852 Y-40.887
X190.832 Y-41.09
X190.814 Y-41.294
X190.796 Y-41.498
X190.779 Y-41.702
X190.763 Y-41.905
X190.748 Y-42.109
X190.733 Y-42.313
X190.718 Y-42.517
X190.704 Y-42.721
X190.691 Y-42.926
X190.678 Y-43.13
X190.666 Y-43.334
X190.654 Y-43.538
X190.643 Y-43.742
X190.633 Y-43.947
X190.623 Y-44.151
X190.613 Y-44.355
X190.605 Y-44.56
X190.596 Y-44.764
X190.589 Y-44.968
X190.582 Y-45.173
X190.575 Y-45.377
X190.569 Y-45.582
X190.563 Y-45.786
X190.558 Y-45.99
X190.553 Y-46.195
X190.549 Y-46.399
X190.545 Y-46.604
X190.541 Y-46.808
X190.538 Y-47.013
X190.535 Y-47.217
X190.532 Y-47.422
X190.529 Y-47.626
X190.522 Y-48.24
X190.519 Y-48.445
X190.516 Y-48.649
X190.513 Y-48.854
X190.51 Y-49.058
X190.506 Y-49.263
X190.502 Y-49.467
X190.498 Y-49.672
X190.493 Y-49.876
X190.488 Y-50.081
X190.483 Y-50.285
X190.478 Y-50.489
X190.472 Y-50.694
X190.466 Y-50.898
X190.454 Y-51.307
X190.429 Y-52.125
X190.417 Y-52.534
X190.411 Y-52.738
X190.406 Y-52.943
X190.4 Y-53.147
X190.395 Y-53.352
X190.39 Y-53.556
X190.385 Y-53.761
X190.38 Y-53.965
X190.375 Y-54.17
X190.371 Y-54.374
X190.367 Y-54.579
X190.363 Y-54.783
X190.359 Y-54.988
X190.355 Y-55.192
X190.352 Y-55.397
X190.349 Y-55.601
X190.346 Y-55.806
X190.343 Y-56.01
X190.341 Y-56.215
X190.338 Y-56.419
X190.336 Y-56.624
X190.334 Y-56.828
X190.332 Y-57.033
X190.33 Y-57.237
X190.329 Y-57.442
X190.327 Y-57.646
X190.326 Y-57.851
X190.325 Y-58.055
X190.322 Y-58.464
X190.32 Y-58.874
X190.319 Y-59.283
X190.318 Y-59.692
X190.316 Y-60.101
X190.315 Y-60.714
X190.314 Y-61.328
X190.313 Y-62.146
X190.312 Y-63.169
Y-64.396
Y-66.441
Y-71.555
Y-71.964
X190.309 Y-72.168
X190.304 Y-72.373
X190.299 Y-72.488
X190.295 Y-72.59
X190.276 Y-72.637
X190.146 Y-72.795
X189.97 Y-72.9
X189.785 Y-72.988
X189.595 Y-73.062
X189.401 Y-73.127
X189.204 Y-73.182
X189.005 Y-73.23
X188.805 Y-73.272
X188.604 Y-73.309
X188.402 Y-73.342
X188.199 Y-73.37
X187.996 Y-73.396
X187.793 Y-73.418
X187.59 Y-73.438
X187.386 Y-73.456
X187.182 Y-73.472
X186.978 Y-73.486
X186.774 Y-73.499
X186.569 Y-73.51
X186.365 Y-73.521
X186.161 Y-73.53
X185.956 Y-73.538
X185.752 Y-73.545
X185.548 Y-73.552
X185.343 Y-73.557
X185.139 Y-73.563
X184.934 Y-73.567
X184.73 Y-73.572
X184.525 Y-73.575
X184.321 Y-73.579
X184.116 Y-73.582
X183.912 Y-73.585
X183.707 Y-73.587
X183.094 Y-73.595
X182.889 Y-73.598
X182.685 Y-73.601
X182.48 Y-73.604
X182.276 Y-73.607
X182.071 Y-73.611
X181.867 Y-73.615
X181.662 Y-73.619
X181.458 Y-73.624
X181.253 Y-73.629
X181.049 Y-73.634
X180.844 Y-73.64
X180.64 Y-73.647
X180.435 Y-73.656
X180.231 Y-73.665
X180.027 Y-73.676
X179.823 Y-73.688
X179.619 Y-73.701
X179.414 Y-73.714
X179.21 Y-73.728
X179.006 Y-73.742
X178.598 Y-73.771
X178.394 Y-73.786
X178.19 Y-73.8
X177.986 Y-73.813
X177.782 Y-73.827
X177.578 Y-73.839
X177.374 Y-73.851
X177.17 Y-73.863
X176.965 Y-73.874
X176.761 Y-73.884
X176.557 Y-73.893
X176.352 Y-73.902
X176.148 Y-73.911
X175.944 Y-73.918
X175.739 Y-73.925
X175.535 Y-73.932
X175.33 Y-73.938
X175.126 Y-73.944
X174.921 Y-73.949
X174.717 Y-73.953
X174.512 Y-73.958
X174.308 Y-73.962
X174.103 Y-73.965
X173.899 Y-73.968
X173.694 Y-73.971
X173.49 Y-73.974
X173.285 Y-73.977
X173.081 Y-73.979
X172.876 Y-73.981
X172.674 Y-74.01
X172.471 Y-74.036
X172.268 Y-74.058
X172.064 Y-74.077
X171.86 Y-74.093
X171.656 Y-74.107
X171.452 Y-74.119
X171.248 Y-74.129
X171.043 Y-74.138
X170.839 Y-74.145
X170.634 Y-74.152
X170.43 Y-74.158
X170.226 Y-74.163
X170.021 Y-74.167
X169.817 Y-74.171
X169.612 Y-74.174
X169.408 Y-74.177
X169.203 Y-74.179
X168.998 Y-74.181
X168.794 Y-74.183
X168.589 Y-74.185
X168.385 Y-74.186
X168.18 Y-74.187
X167.976 Y-74.188
X167.771 Y-74.189
X167.567 Y-74.19
X167.158 Y-74.191
X166.749 Y-74.192
X166.135 Y-74.193
X165.521
X164.703 Y-74.194
X163.476
X161.022 Y-74.195
X145.477
X145.273 Y-74.197
X145.068 Y-74.203
X144.864 Y-74.211
X144.659 Y-74.22
X144.455 Y-74.231
X144.251 Y-74.242
X144.047 Y-74.253
X143.842 Y-74.264
X143.638 Y-74.274
X143.434 Y-74.285
X143.23 Y-74.294
X143.025 Y-74.303
X142.821 Y-74.312
X142.617 Y-74.319
X142.412 Y-74.326
X142.208 Y-74.333
X142.003 Y-74.339
X141.799 Y-74.344
X141.594 Y-74.349
X141.39 Y-74.354
X141.185 Y-74.358
X140.981 Y-74.361
X140.776 Y-74.364
X140.572 Y-74.367
X140.367 Y-74.37
X140.163 Y-74.372
X139.958 Y-74.374
X139.754 Y-74.376
X139.549 Y-74.378
X139.345 Y-74.379
X139.14 Y-74.381
X138.936 Y-74.382
X138.731 Y-74.383
X138.527 Y-74.384
X138.117 Y-74.385
X137.708 Y-74.386
X137.299 Y-74.387
X136.686 Y-74.388
X136.072 Y-74.389
X135.254 Y-74.39
X134.027
X131.981
X124.209
X122.982
X72.871
X22.76
X-27.35
X-77.461
X-127.572
X-154.98
X-155.184 Y-74.388
X-155.389 Y-74.382
X-155.593 Y-74.374
X-155.797 Y-74.365
X-156.001 Y-74.355
X-156.206 Y-74.344
X-156.614 Y-74.323
X-156.819 Y-74.312
X-157.023 Y-74.302
X-157.227 Y-74.293
X-157.431 Y-74.284
X-157.636 Y-74.275
X-157.84 Y-74.268
X-158.045 Y-74.26
X-158.249 Y-74.253
X-158.862 Y-74.233
X-159.067 Y-74.226
X-159.271 Y-74.219
X-159.476 Y-74.212
X-159.68 Y-74.204
X-159.884 Y-74.197
X-160.089 Y-74.189
X-160.497 Y-74.173
X-161.111 Y-74.149
X-161.315 Y-74.141
X-161.519 Y-74.133
X-161.724 Y-74.126
X-161.928 Y-74.118
X-162.133 Y-74.111
X-162.337 Y-74.104
X-162.541 Y-74.097
X-162.746 Y-74.091
X-162.95 Y-74.084
X-163.155 Y-74.078
X-163.359 Y-74.073
X-163.564 Y-74.067
X-163.768 Y-74.062
X-163.973 Y-74.057
X-164.177 Y-74.053
X-164.382 Y-74.049
X-164.586 Y-74.045
X-164.791 Y-74.041
X-164.995 Y-74.037
X-165.2 Y-74.034
X-165.404 Y-74.031
X-165.609 Y-74.028
X-165.813 Y-74.026
X-166.018 Y-74.023
X-166.222 Y-74.021
X-166.836 Y-74.015
X-167.04 Y-74.013
X-167.245 Y-74.01
X-167.449 Y-74.008
X-167.654 Y-74.005
X-167.858 Y-74.002
X-168.063 Y-73.999
X-168.267 Y-73.995
X-168.472 Y-73.991
X-168.676 Y-73.987
X-168.881 Y-73.982
X-169.085 Y-73.977
X-169.29 Y-73.971
X-169.494 Y-73.964
X-169.698 Y-73.955
X-169.903 Y-73.946
X-170.107 Y-73.935
X-170.311 Y-73.923
X-170.515 Y-73.911
X-170.719 Y-73.898
X-170.924 Y-73.884
X-171.128 Y-73.871
X-171.536 Y-73.843
X-171.74 Y-73.829
X-171.944 Y-73.816
X-172.148 Y-73.803
X-172.352 Y-73.79
X-172.556 Y-73.778
X-172.761 Y-73.766
X-172.965 Y-73.755
X-173.169 Y-73.744
X-173.373 Y-73.734
X-173.578 Y-73.724
X-173.782 Y-73.715
X-173.986 Y-73.706
X-174.191 Y-73.698
X-174.395 Y-73.691
X-174.599 Y-73.684
X-174.804 Y-73.677
X-175.008 Y-73.671
X-175.213 Y-73.665
X-175.417 Y-73.66
X-175.622 Y-73.655
X-175.826 Y-73.651
X-176.031 Y-73.647
X-176.235 Y-73.643
X-176.44 Y-73.64
X-176.644 Y-73.637
X-176.849 Y-73.634
X-177.053 Y-73.631
X-177.258 Y-73.629
X-177.462 Y-73.627
X-177.667 Y-73.625
X-177.871 Y-73.623
X-177.973 Y-73.609
X-178.131 Y-73.587
X-178.308 Y-73.566
X-178.507 Y-73.544
X-178.711 Y-73.526
X-178.915 Y-73.51
X-179.119 Y-73.496
X-179.323 Y-73.484
X-179.528 Y-73.473
X-179.732 Y-73.465
X-179.936 Y-73.457
X-180.141 Y-73.451
X-180.345 Y-73.445
X-180.55 Y-73.44
X-180.754 Y-73.436
X-180.959 Y-73.433
X-181.163 Y-73.43
X-181.368 Y-73.427
X-181.572 Y-73.425
X-181.777 Y-73.423
X-181.981 Y-73.421
X-182.186 Y-73.42
X-182.39 Y-73.419
X-182.595 Y-73.418
X-182.799 Y-73.417
X-183.004 Y-73.416
X-183.413 Y-73.415
X-183.822 Y-73.414
X-184.436 Y-73.413
X-185.049
X-186.072 Y-73.412
X-186.992
X-187.041 Y-73.396
X-187.082 Y-73.365
X-187.197 Y-73.196
X-187.283 Y-73.01
X-187.353 Y-72.818
X-187.412 Y-72.622
X-187.462 Y-72.424
X-187.503 Y-72.224
X-187.538 Y-72.022
X-187.568 Y-71.82
X-187.594 Y-71.617
X-187.615 Y-71.414
X-187.634 Y-71.21
X-187.65 Y-71.006
X-187.663 Y-70.802
X-187.675 Y-70.598
X-187.685 Y-70.393
X-187.693 Y-70.189
X-187.7 Y-69.985
X-187.707 Y-69.78
X-187.712 Y-69.576
X-187.717 Y-69.371
X-187.721 Y-69.167
X-187.724 Y-68.962
X-187.727 Y-68.758
X-187.729 Y-68.553
X-187.732 Y-68.349
X-187.734 Y-68.144
X-187.735 Y-67.94
X-187.736 Y-67.735
X-187.738 Y-67.531
X-187.739 Y-67.326
X-187.74 Y-67.121
X-187.741 Y-66.712
X-187.742 Y-66.303
X-187.743 Y-66.099
X-187.744 Y-65.894
X-187.746 Y-65.69
X-187.748 Y-65.485
X-187.75 Y-65.281
X-187.753 Y-65.076
X-187.757 Y-64.872
X-187.761 Y-64.667
X-187.766 Y-64.463
X-187.771 Y-64.258
X-187.777 Y-64.054
X-187.783 Y-63.849
X-187.79 Y-63.645
X-187.797 Y-63.441
X-187.804 Y-63.236
X-187.811 Y-63.032
X-187.825 Y-62.623
X-187.84 Y-62.214
X-187.848 Y-62.01
X-187.855 Y-61.805
X-187.863 Y-61.601
X-187.871 Y-61.397
X-187.879 Y-61.192
X-187.888 Y-60.988
X-187.896 Y-60.783
X-187.905 Y-60.579
X-187.913 Y-60.375
X-187.931 Y-59.966
X-187.936 Y-59.864
X-187.946 Y-59.69
X-187.961 Y-59.486
X-187.979 Y-59.282
X-187.998 Y-59.078
X-188.017 Y-58.875
X-188.037 Y-58.671
X-188.057 Y-58.468
X-188.077 Y-58.264
X-188.095 Y-58.06
X-188.114 Y-57.857
X-188.131 Y-57.653
X-188.147 Y-57.449
X-188.162 Y-57.245
X-188.176 Y-57.041
X-188.189 Y-56.837
X-188.202 Y-56.633
X-188.213 Y-56.428
X-188.224 Y-56.224
X-188.233 Y-56.02
X-188.242 Y-55.816
X-188.25 Y-55.611
X-188.258 Y-55.407
X-188.265 Y-55.202
X-188.271 Y-54.998
X-188.277 Y-54.793
X-188.282 Y-54.589
X-188.287 Y-54.384
X-188.291 Y-54.18
X-188.295 Y-53.976
X-188.298 Y-53.771
X-188.302 Y-53.566
X-188.305 Y-53.362
X-188.307 Y-53.157
X-188.31 Y-52.953
X-188.312 Y-52.748
X-188.314 Y-52.544
X-188.316 Y-52.339
X-188.317 Y-52.135
X-188.319 Y-51.93
X-188.32 Y-51.726
X-188.321 Y-51.521
X-188.323 Y-51.317
X-188.324 Y-50.908
X-188.325 Y-50.703
X-188.326 Y-50.499
X-188.328 Y-50.294
X-188.33 Y-50.09
X-188.333 Y-49.885
X-188.337 Y-49.681
X-188.343 Y-49.476
X-188.349 Y-49.272
X-188.355 Y-49.067
X-188.363 Y-48.863
X-188.371 Y-48.658
X-188.379 Y-48.454
X-188.404 Y-47.841
X-188.413 Y-47.637
X-188.421 Y-47.432
X-188.428 Y-47.228
X-188.436 Y-47.023
X-188.443 Y-46.819
X-188.45 Y-46.615
X-188.456 Y-46.41
X-188.463 Y-46.206
X-188.468 Y-46.001
X-188.473 Y-45.797
X-188.478 Y-45.592
X-188.483 Y-45.388
X-188.487 Y-45.183
X-188.491 Y-44.979
X-188.494 Y-44.774
X-188.498 Y-44.57
X-188.501 Y-44.365
X-188.503 Y-44.161
X-188.506 Y-43.956
X-188.508 Y-43.752
X-188.51 Y-43.547
X-188.512 Y-43.343
X-188.514 Y-43.138
X-188.515 Y-42.934
X-188.516 Y-42.729
X-188.518 Y-42.525
X-188.519 Y-42.32
X-188.52 Y-42.116
X-188.521 Y-41.707
X-188.523 Y-41.297
X-188.524 Y-40.684
X-188.526 Y-40.07
X-188.527 Y-39.661
X-188.528 Y-39.457
X-188.529 Y-39.252
X-188.53 Y-39.048
X-188.531 Y-38.843
X-188.533 Y-38.639
X-188.534 Y-38.434
X-188.537 Y-38.229
X-188.539 Y-38.025
X-188.542 Y-37.82
X-188.544 Y-37.616
X-188.548 Y-37.411
X-188.551 Y-37.207
X-188.555 Y-37.002
X-188.559 Y-36.798
X-188.563 Y-36.593
X-188.568 Y-36.389
X-188.572 Y-36.184
X-188.577 Y-35.98
X-188.582 Y-35.776
X-188.593 Y-35.367
X-188.614 Y-34.539
X-188.618 Y-34.495
X-188.628 Y-34.452
X-188.644 Y-34.411
X-188.978 Y-33.705
X-189.021 Y-33.61
X-189.064 Y-33.515
X-189.451 Y-32.658
X-189.493 Y-32.563
X-189.534 Y-32.468
X-189.914 Y-31.58
X-189.941 Y-31.515
X-189.981 Y-31.42
X-190.009 Y-31.351
X-190.369 Y-30.468
X-190.407 Y-30.373
X-190.444 Y-30.278
X-190.775 Y-29.421
X-190.811 Y-29.326
X-190.847 Y-29.23
X-191.056 Y-28.659
G03 X-191.656 Y-28.69 I-0.294 J-0.119
G01 X-191.675 Y-28.758 Z-8.247
X-191.694 Y-28.822 Z-8.224
X-191.711 Y-28.88 Z-8.186
X-191.725 Y-28.928 Z-8.135
X-191.735 Y-28.965 Z-8.075
X-191.742 Y-28.987 Z-8.008
X-191.744 Y-28.995 Z-7.938
G00 Z5.
X-192.281 Y13.814
Z-7.62
G01 Z-7.938 F1275.
X-192.275 Y13.819 Z-8.008
X-192.257 Y13.834 Z-8.075
X-192.228 Y13.859 Z-8.135
X-192.19 Y13.892 Z-8.186
X-192.144 Y13.931 Z-8.224
X-192.093 Y13.974 Z-8.247
X-192.04 Y14.02 Z-8.255
G03 X-191.588 Y14.663 I-1.028 J1.203
G01 X-191.394 Y15.234
X-191.361 Y15.329
X-191.327 Y15.424
X-191.224 Y15.71
X-190.962 Y16.441
X-190.95 Y16.472
X-190.915 Y16.567
X-190.515 Y17.614
X-190.486 Y17.689
X-190.094 Y18.662
X-190.055 Y18.757
X-190.016 Y18.852
X-189.571 Y19.899
X-189.533 Y19.985
X-189.459 Y20.175
X-189.39 Y20.368
X-189.328 Y20.563
X-189.275 Y20.76
X-189.228 Y20.959
X-189.187 Y21.16
X-189.151 Y21.361
X-189.12 Y21.563
X-189.093 Y21.766
X-189.07 Y21.969
X-189.05 Y22.173
X-189.032 Y22.377
X-189.017 Y22.581
X-189.003 Y22.785
X-188.992 Y22.989
X-188.982 Y23.193
X-188.974 Y23.398
X-188.966 Y23.602
X-188.96 Y23.806
X-188.954 Y24.011
X-188.949 Y24.215
X-188.945 Y24.42
X-188.942 Y24.624
X-188.939 Y24.829
X-188.936 Y25.033
X-188.934 Y25.238
X-188.932 Y25.442
X-188.93 Y25.647
X-188.929 Y25.851
X-188.927 Y26.056
X-188.926 Y26.26
X-188.925 Y26.465
Y26.67
X-188.923 Y27.079
X-188.922 Y27.488
Y27.897
X-188.921 Y28.51
X-188.92 Y29.328
Y30.556
Y32.806
X-188.919 Y33.215
Y33.419
Y33.624
X-188.918 Y33.828
X-188.917 Y34.033
X-188.915 Y34.237
X-188.912 Y34.442
X-188.909 Y34.646
X-188.906 Y34.851
X-188.902 Y35.055
X-188.897 Y35.26
X-188.892 Y35.464
X-188.887 Y35.669
X-188.881 Y35.873
X-188.875 Y36.078
X-188.868 Y36.282
X-188.862 Y36.486
X-188.855 Y36.691
X-188.848 Y36.895
X-188.841 Y37.1
X-188.834 Y37.304
X-188.827 Y37.509
X-188.819 Y37.713
X-188.811 Y37.917
X-188.803 Y38.122
X-188.795 Y38.326
X-188.787 Y38.53
X-188.778 Y38.735
X-188.77 Y38.939
X-188.752 Y39.348
X-188.717 Y40.165
X-188.708 Y40.37
X-188.699 Y40.574
X-188.691 Y40.778
X-188.682 Y40.983
X-188.674 Y41.187
X-188.666 Y41.391
X-188.658 Y41.596
X-188.651 Y41.8
X-188.644 Y42.005
X-188.637 Y42.209
X-188.63 Y42.413
X-188.624 Y42.618
X-188.617 Y42.822
X-188.611 Y43.027
X-188.606 Y43.231
X-188.6 Y43.436
X-188.595 Y43.64
X-188.591 Y43.845
X-188.586 Y44.049
X-188.582 Y44.254
X-188.578 Y44.458
X-188.574 Y44.663
X-188.57 Y44.867
X-188.567 Y45.072
X-188.564 Y45.276
X-188.561 Y45.481
X-188.559 Y45.685
X-188.556 Y45.89
X-188.554 Y46.094
X-188.552 Y46.299
X-188.55 Y46.503
X-188.548 Y46.708
X-188.546 Y46.912
X-188.544 Y47.117
X-188.543 Y47.321
X-188.542 Y47.526
X-188.54 Y47.73
X-188.538 Y48.139
X-188.536 Y48.548
X-188.535 Y48.958
X-188.534 Y49.367
X-188.532 Y49.98
X-188.531 Y50.594
X-188.53 Y51.207
X-188.529 Y52.026
Y53.048
X-188.528 Y54.48
Y54.889
Y55.094
X-188.527 Y55.298
X-188.524 Y55.503
X-188.521 Y55.707
X-188.517 Y55.912
X-188.512 Y56.116
X-188.506 Y56.321
X-188.499 Y56.525
X-188.492 Y56.729
X-188.485 Y56.934
X-188.477 Y57.138
X-188.454 Y57.751
X-188.446 Y57.956
X-188.438 Y58.16
X-188.431 Y58.364
X-188.424 Y58.569
X-188.417 Y58.773
X-188.41 Y58.978
X-188.404 Y59.182
X-188.398 Y59.387
X-188.393 Y59.591
X-188.388 Y59.796
X-188.383 Y60.
X-188.378 Y60.205
X-188.373 Y60.409
X-188.364 Y60.818
X-188.351 Y61.431
X-188.346 Y61.636
X-188.342 Y61.84
X-188.337 Y62.045
X-188.332 Y62.249
X-188.327 Y62.454
X-188.322 Y62.658
X-188.316 Y62.863
X-188.311 Y63.067
X-188.3 Y63.476
X-188.29 Y63.68
X-188.278 Y63.885
X-188.264 Y64.089
X-188.249 Y64.293
X-188.232 Y64.496
X-188.199 Y64.904
X-188.183 Y65.108
X-188.167 Y65.312
X-188.152 Y65.516
X-188.137 Y65.72
X-188.123 Y65.924
X-188.11 Y66.128
X-188.097 Y66.332
X-188.085 Y66.536
X-188.074 Y66.741
X-188.063 Y66.945
X-188.054 Y67.149
X-188.045 Y67.354
X-188.036 Y67.558
X-188.028 Y67.762
X-188.021 Y67.967
X-188.014 Y68.171
X-188.008 Y68.376
X-188.002 Y68.58
X-187.997 Y68.785
X-187.992 Y68.989
X-187.988 Y69.193
X-187.984 Y69.398
X-187.98 Y69.602
X-187.976 Y69.807
X-187.973 Y70.011
X-187.972 Y70.063
X-187.967 Y70.101
X-187.959 Y70.151
X-187.948 Y70.174
X-187.827 Y70.339
X-187.66 Y70.457
X-187.48 Y70.554
X-187.292 Y70.635
X-187.1 Y70.705
X-186.905 Y70.766
X-186.707 Y70.819
X-186.508 Y70.867
X-186.308 Y70.91
X-186.107 Y70.949
X-185.906 Y70.984
X-185.704 Y71.017
X-185.502 Y71.047
X-185.299 Y71.075
X-185.096 Y71.102
X-184.893 Y71.126
X-184.69 Y71.149
X-184.487 Y71.17
X-184.283 Y71.19
X-184.079 Y71.209
X-183.876 Y71.226
X-183.672 Y71.243
X-183.468 Y71.258
X-183.264 Y71.272
X-183.06 Y71.285
X-182.855 Y71.298
X-182.651 Y71.309
X-182.447 Y71.32
X-182.243 Y71.329
X-182.038 Y71.338
X-181.834 Y71.347
X-181.63 Y71.354
X-181.425 Y71.361
X-181.221 Y71.368
X-181.016 Y71.374
X-180.812 Y71.379
X-180.607 Y71.384
X-180.403 Y71.389
X-180.198 Y71.393
X-179.994 Y71.397
X-179.789 Y71.4
X-179.585 Y71.403
X-179.38 Y71.406
X-179.176 Y71.409
X-178.971 Y71.411
X-178.767 Y71.413
X-178.562 Y71.415
X-178.358 Y71.417
X-178.153 Y71.418
X-177.949 Y71.42
X-177.744 Y71.421
X-177.54 Y71.422
X-177.335 Y71.423
X-176.926 Y71.425
X-176.517 Y71.427
X-176.108 Y71.428
X-175.494 Y71.429
X-174.881 Y71.43
X-174.063 Y71.431
X-173.04 Y71.432
X-172.017
X-171.608
X-171.404 Y71.433
X-171.199
X-170.995 Y71.434
X-170.79 Y71.435
X-170.585 Y71.436
X-170.381 Y71.437
X-170.176 Y71.439
X-169.972 Y71.44
X-169.767 Y71.443
X-169.563 Y71.445
X-169.358 Y71.448
X-169.154 Y71.451
X-168.949 Y71.454
X-168.745 Y71.458
X-168.54 Y71.462
X-168.336 Y71.466
X-168.131 Y71.47
X-167.927 Y71.475
X-167.722 Y71.48
X-167.518 Y71.485
X-167.313 Y71.49
X-166.905 Y71.501
X-166.087 Y71.522
X-165.678 Y71.533
X-165.473 Y71.538
X-165.269 Y71.543
X-165.064 Y71.548
X-164.86 Y71.552
X-164.655 Y71.557
X-164.451 Y71.561
X-164.246 Y71.565
X-164.042 Y71.569
X-163.837 Y71.573
X-163.633 Y71.577
X-163.428 Y71.58
X-163.224 Y71.584
X-163.019 Y71.587
X-162.815 Y71.59
X-162.61 Y71.593
X-162.406 Y71.595
X-161.997 Y71.6
X-161.792 Y71.603
X-161.588 Y71.607
X-161.383 Y71.612
X-161.179 Y71.618
X-160.974 Y71.625
X-160.77 Y71.632
X-160.566 Y71.64
X-160.361 Y71.649
X-160.157 Y71.658
X-159.748 Y71.677
X-159.544 Y71.687
X-159.34 Y71.696
X-159.135 Y71.705
X-158.931 Y71.714
X-158.727 Y71.722
X-158.522 Y71.731
X-158.318 Y71.738
X-158.114 Y71.745
X-157.909 Y71.752
X-157.705 Y71.758
X-157.5 Y71.764
X-157.296 Y71.77
X-157.091 Y71.775
X-156.887 Y71.78
X-156.682 Y71.784
X-156.478 Y71.788
X-156.273 Y71.791
X-156.069 Y71.795
X-155.864 Y71.797
X-155.66 Y71.8
X-155.455 Y71.803
X-155.251 Y71.805
X-155.046 Y71.807
X-154.842 Y71.809
X-154.637 Y71.81
X-154.433 Y71.812
X-154.228 Y71.813
X-154.024 Y71.814
X-153.819 Y71.815
X-153.41 Y71.817
X-153.001 Y71.818
X-152.592 Y71.82
X-152.183 Y71.821
X-151.569 Y71.822
X-150.956
X-150.137 Y71.823
X-149.115
X-149.012 Y71.824
X-148.845 Y71.826
X-148.641 Y71.831
X-148.436 Y71.839
X-148.232 Y71.848
X-148.028 Y71.859
X-147.823 Y71.87
X-147.619 Y71.882
X-147.415 Y71.893
X-147.211 Y71.904
X-147.007 Y71.915
X-146.802 Y71.925
X-146.598 Y71.934
X-146.394 Y71.942
X-146.189 Y71.95
X-145.985 Y71.957
X-145.78 Y71.964
X-145.576 Y71.97
X-145.371 Y71.975
X-145.167 Y71.98
X-144.962 Y71.985
X-144.758 Y71.989
X-144.553 Y71.992
X-144.349 Y71.995
X-144.144 Y71.998
X-143.94 Y72.001
X-143.735 Y72.003
X-143.531 Y72.005
X-143.326 Y72.007
X-143.122 Y72.008
X-142.917 Y72.01
X-142.713 Y72.011
X-142.508 Y72.012
X-142.304 Y72.013
X-141.895 Y72.014
X-141.486 Y72.016
X-141.077 Y72.017
X-140.463 Y72.018
X-139.849
X-139.031 Y72.019
X-138.213
X-138.009
X-137.806 Y72.047
X-137.603 Y72.071
X-137.399 Y72.091
X-137.195 Y72.109
X-136.991 Y72.124
X-136.787 Y72.137
X-136.583 Y72.148
X-136.379 Y72.157
X-136.174 Y72.165
X-135.97 Y72.172
X-135.766 Y72.178
X-135.561 Y72.184
X-135.357 Y72.188
X-135.152 Y72.192
X-134.948 Y72.195
X-134.743 Y72.198
X-134.539 Y72.2
X-134.334 Y72.202
X-134.13 Y72.204
X-133.925 Y72.206
X-133.72 Y72.207
X-133.516 Y72.208
X-133.311 Y72.209
X-133.107 Y72.21
X-132.902 Y72.211
X-132.493 Y72.212
X-132.084 Y72.213
X-131.471 Y72.214
X-130.857
X-129.834 Y72.215
X-128.198
X-123.903
X-88.109
X-37.999
X12.112
X62.223
X112.334
X151.4
X151.604 Y72.212
X151.809 Y72.206
X152.013 Y72.198
X152.217 Y72.188
X152.422 Y72.178
X152.83 Y72.156
X153.034 Y72.146
X153.239 Y72.136
X153.443 Y72.126
X153.647 Y72.116
X153.852 Y72.107
X154.056 Y72.099
X154.26 Y72.091
X154.465 Y72.084
X154.669 Y72.078
X154.874 Y72.072
X155.078 Y72.066
X155.283 Y72.061
X155.487 Y72.057
X155.692 Y72.053
X155.896 Y72.049
X156.101 Y72.046
X156.305 Y72.043
X156.51 Y72.04
X156.714 Y72.038
X156.919 Y72.036
X157.123 Y72.034
X157.328 Y72.032
X157.532 Y72.031
X157.737 Y72.029
X157.941 Y72.028
X158.146 Y72.027
X158.35 Y72.026
X158.759 Y72.025
X159.168 Y72.024
X159.578 Y72.023
X160.396 Y72.021
X160.6
X160.805 Y72.02
X161.009 Y72.019
X161.214 Y72.018
X161.418 Y72.017
X161.623 Y72.015
X161.827 Y72.013
X162.032 Y72.01
X162.236 Y72.006
X162.441 Y72.001
X162.645 Y71.995
X162.847 Y71.96
X163.049 Y71.929
X163.251 Y71.9
X163.454 Y71.873
X163.657 Y71.847
X163.86 Y71.824
X164.064 Y71.801
X164.267 Y71.78
X164.471 Y71.76
X164.674 Y71.741
X164.878 Y71.723
X165.082 Y71.705
X165.286 Y71.689
X165.489 Y71.673
X165.693 Y71.657
X165.897 Y71.643
X166.102 Y71.629
X166.306 Y71.616
X166.51 Y71.603
X166.714 Y71.592
X166.918 Y71.58
X167.122 Y71.57
X167.327 Y71.56
X167.531 Y71.55
X167.735 Y71.541
X167.94 Y71.533
X168.144 Y71.525
X168.349 Y71.518
X168.553 Y71.511
X168.757 Y71.504
X168.962 Y71.498
X169.166 Y71.493
X169.371 Y71.488
X169.575 Y71.483
X169.78 Y71.479
X169.984 Y71.475
X170.189 Y71.471
X170.393 Y71.467
X170.598 Y71.464
X170.802 Y71.461
X171.007 Y71.459
X171.211 Y71.456
X171.416 Y71.454
X171.62 Y71.452
X171.825 Y71.45
X172.029 Y71.448
X172.234 Y71.447
X172.438 Y71.445
X172.643 Y71.444
X172.848 Y71.443
X173.257 Y71.441
X173.666 Y71.439
X174.075 Y71.438
X174.484 Y71.437
X175.097 Y71.436
X175.711 Y71.435
X176.529 Y71.434
X177.552 Y71.433
X178.574
X178.984 Y71.432
X179.188
X179.393 Y71.431
X179.597 Y71.43
X179.802 Y71.429
X180.006 Y71.428
X180.211 Y71.426
X180.415 Y71.425
X180.62 Y71.422
X180.824 Y71.42
X181.029 Y71.417
X181.233 Y71.414
X181.438 Y71.41
X181.642 Y71.406
X181.847 Y71.402
X182.051 Y71.398
X182.256 Y71.393
X182.46 Y71.388
X182.665 Y71.383
X182.869 Y71.378
X183.278 Y71.368
X184.096 Y71.346
X184.505 Y71.336
X184.709 Y71.331
X184.914 Y71.326
X185.118 Y71.321
X185.323 Y71.316
X185.527 Y71.312
X185.732 Y71.307
X185.936 Y71.303
X186.141 Y71.299
X186.345 Y71.295
X186.55 Y71.291
X186.818 Y71.286
X186.933 Y71.285
X186.981 Y71.268
X187.062 Y71.205
X187.173 Y71.033
X187.262 Y70.849
X187.336 Y70.658
X187.397 Y70.463
X187.448 Y70.265
X187.492 Y70.065
X187.528 Y69.864
X187.56 Y69.661
X187.586 Y69.459
X187.609 Y69.255
X187.628 Y69.052
X187.645 Y68.848
X187.659 Y68.644
X187.671 Y68.44
X187.681 Y68.235
X187.69 Y68.031
X187.698 Y67.827
X187.704 Y67.622
X187.71 Y67.418
X187.715 Y67.213
X187.719 Y67.009
X187.723 Y66.804
X187.726 Y66.6
X187.728 Y66.395
X187.731 Y66.191
X187.733 Y65.986
X187.739 Y65.373
X187.742 Y65.168
X187.744 Y64.964
X187.747 Y64.759
X187.75 Y64.555
X187.754 Y64.35
X187.757 Y64.146
X187.761 Y63.941
X187.766 Y63.737
X187.771 Y63.532
X187.776 Y63.328
X187.781 Y63.123
X187.787 Y62.919
X187.793 Y62.714
X187.799 Y62.51
X187.811 Y62.101
X187.83 Y61.488
X187.836 Y61.283
X187.84 Y61.181
X187.848 Y60.995
X187.86 Y60.791
X187.874 Y60.587
X187.89 Y60.383
X187.906 Y60.179
X187.939 Y59.771
X187.956 Y59.567
X187.972 Y59.363
X187.988 Y59.159
X188.003 Y58.955
X188.019 Y58.752
X188.034 Y58.548
X188.048 Y58.344
X188.063 Y58.14
X188.077 Y57.936
X188.091 Y57.731
X188.105 Y57.527
X188.118 Y57.323
X188.131 Y57.119
X188.144 Y56.915
X188.156 Y56.711
X188.168 Y56.507
X188.179 Y56.302
X188.19 Y56.098
X188.2 Y55.894
X188.21 Y55.69
X188.219 Y55.485
X188.228 Y55.281
X188.236 Y55.077
X188.243 Y54.872
X188.251 Y54.668
X188.257 Y54.463
X188.264 Y54.259
X188.269 Y54.054
X188.275 Y53.85
X188.28 Y53.645
X188.284 Y53.441
X188.289 Y53.237
X188.293 Y53.032
X188.297 Y52.828
X188.3 Y52.623
X188.307 Y52.214
X188.318 Y51.601
X188.321 Y51.396
X188.325 Y51.192
X188.329 Y50.987
X188.333 Y50.783
X188.337 Y50.578
X188.341 Y50.374
X188.346 Y50.169
X188.35 Y49.965
X188.355 Y49.76
X188.36 Y49.556
X188.366 Y49.351
X188.371 Y49.147
X188.382 Y48.738
X188.41 Y47.715
X188.421 Y47.307
X188.427 Y47.102
X188.432 Y46.898
X188.437 Y46.693
